(G-CODE GENERATED BY FLATCAM v2024.4 - www.flatcam.org - Version Date: 2024/04/15)

(Name: mini_CNC_project-B_Cu.gbr_mt_paint_cnc)
(Type: G-code from Geometry)
(Units: MM)

(Created on Saturday, 06 September 2025 at 19:53)

(This preprocessor is the default preprocessor used by FlatCAM.)
(It is made to work with MACH3 compatible motion controllers.)

(TOOL DIAMETER: 0.2 mm)
(Feedrate_XY: 100.0 mm/min)
(Feedrate_Z: 30.0 mm/min)
(Feedrate rapids 1500.0 mm/min)

(Z_Cut: 0.0 mm)
(Z_Move: 1.0 mm)
(Z Start: None mm)
(Z End: 5.0 mm)
(X,Y End: None mm)
(Steps per circle: 64)
(Preprocessor Geometry: default)

(X range:   10.9799 ...  286.1824  mm)
(Y range: -199.5758 ...  -10.3186  mm)

(Spindle Speed: 0.0 RPM)
G21
G90
G94

G01 F100.00

M5
G00 Z15.0000
G00 X0.0000 Y0.0000
T1
M6    
(MSG, Change to Tool Dia = 0.2000)
M0
G00 Z15.0000

M03
G01 F100.00
G00 X10.9799 Y-34.4329
G01 F30.00
G01 Z0.0000
G01 F100.00
G01 X11.0000 Y-34.3725
G01 X11.0201 Y-34.4329
G01 X11.0100 Y-34.4314
G01 X11.0000 Y-34.4309
G01 X10.9900 Y-34.4314
G01 X10.9799 Y-34.4329
G00 Z1.0000
G00 X35.6521 Y-10.4371
G01 F30.00
G01 Z0.0000
G01 F100.00
G01 X35.6928 Y-10.3761
G01 X35.6928 Y-10.4501
G01 X35.6832 Y-10.4452
G01 X35.6741 Y-10.4417
G01 X35.6622 Y-10.4386
G01 X35.6521 Y-10.4371
G00 Z1.0000
G00 X85.3447 Y-11.5686
G01 F30.00
G01 Z0.0000
G01 F100.00
G01 X85.3689 Y-11.5444
G01 X85.3732 Y-11.5568
G01 X85.3790 Y-11.5686
G01 X85.3447 Y-11.5686
G00 Z1.0000
G00 X116.9400 Y-27.3000
G01 F30.00
G01 Z0.0000
G01 F100.00
G01 X116.9441 Y-27.2894
G01 X116.9482 Y-27.2773
G01 X116.9511 Y-27.2674
G01 X116.9541 Y-27.2550
G01 X116.9578 Y-27.2337
G01 X116.9589 Y-27.2235
G01 X116.9598 Y-27.2107
G01 X116.9600 Y-26.7600
G01 X118.0400 Y-26.7600
G01 X118.0400 Y-27.8400
G01 X116.9600 Y-27.8400
G01 X116.9598 Y-27.3893
G01 X116.9589 Y-27.3765
G01 X116.9578 Y-27.3663
G01 X116.9541 Y-27.3450
G01 X116.9511 Y-27.3326
G01 X116.9482 Y-27.3227
G01 X116.9441 Y-27.3106
G01 X116.9400 Y-27.3000
G01 X117.1079 Y-27.3000
G01 X117.1127 Y-27.2780
G01 X117.1160 Y-27.2577
G01 X117.1183 Y-27.2372
G01 X117.1198 Y-27.2142
G01 X117.1200 Y-26.9200
G01 X117.8800 Y-26.9200
G01 X117.8800 Y-27.6800
G01 X117.1200 Y-27.6800
G01 X117.1198 Y-27.3858
G01 X117.1183 Y-27.3628
G01 X117.1160 Y-27.3423
G01 X117.1127 Y-27.3220
G01 X117.1079 Y-27.3000
G01 X117.2713 Y-27.3000
G01 X117.2744 Y-27.2802
G01 X117.2767 Y-27.2617
G01 X117.2786 Y-27.2407
G01 X117.2796 Y-27.2225
G01 X117.2800 Y-27.2014
G01 X117.2800 Y-27.0800
G01 X117.7200 Y-27.0800
G01 X117.7200 Y-27.5200
G01 X117.2800 Y-27.5200
G01 X117.2800 Y-27.3986
G01 X117.2796 Y-27.3775
G01 X117.2786 Y-27.3593
G01 X117.2767 Y-27.3383
G01 X117.2744 Y-27.3198
G01 X117.2713 Y-27.3000
G01 X117.4332 Y-27.3000
G01 X117.4368 Y-27.2691
G01 X117.4389 Y-27.2400
G01 X117.5600 Y-27.2400
G01 X117.5600 Y-27.3600
G01 X117.4389 Y-27.3600
G01 X117.4368 Y-27.3309
G01 X117.4332 Y-27.3000
G00 Z1.0000
G00 X117.4403 Y-29.8400
G01 F30.00
G01 Z0.0000
G01 F100.00
G01 X117.4420 Y-29.8515
G01 X117.4434 Y-29.8572
G01 X117.4454 Y-29.8626
G01 X117.4479 Y-29.8679
G01 X117.4509 Y-29.8728
G01 X117.4543 Y-29.8775
G01 X117.4582 Y-29.8818
G01 X117.4625 Y-29.8857
G01 X117.4672 Y-29.8891
G01 X117.4721 Y-29.8921
G01 X117.4774 Y-29.8946
G01 X117.4828 Y-29.8966
G01 X117.4885 Y-29.8980
G01 X117.4942 Y-29.8988
G01 X117.5000 Y-29.8991
G01 X117.5058 Y-29.8988
G01 X117.5115 Y-29.8980
G01 X117.5172 Y-29.8966
G01 X117.5226 Y-29.8946
G01 X117.5279 Y-29.8921
G01 X117.5328 Y-29.8891
G01 X117.5375 Y-29.8857
G01 X117.5418 Y-29.8818
G01 X117.5457 Y-29.8775
G01 X117.5491 Y-29.8728
G01 X117.5521 Y-29.8679
G01 X117.5546 Y-29.8626
G01 X117.5566 Y-29.8572
G01 X117.5580 Y-29.8515
G01 X117.5588 Y-29.8458
G01 X117.5591 Y-29.8400
G01 X117.5588 Y-29.8342
G01 X117.5580 Y-29.8285
G01 X117.5566 Y-29.8228
G01 X117.5546 Y-29.8174
G01 X117.5521 Y-29.8121
G01 X117.5491 Y-29.8072
G01 X117.5457 Y-29.8025
G01 X117.5418 Y-29.7982
G01 X117.5375 Y-29.7943
G01 X117.5328 Y-29.7909
G01 X117.5279 Y-29.7879
G01 X117.5226 Y-29.7854
G01 X117.5172 Y-29.7834
G01 X117.5115 Y-29.7820
G01 X117.5058 Y-29.7812
G01 X117.5000 Y-29.7809
G01 X117.4942 Y-29.7812
G01 X117.4885 Y-29.7820
G01 X117.4828 Y-29.7834
G01 X117.4774 Y-29.7854
G01 X117.4721 Y-29.7879
G01 X117.4672 Y-29.7909
G01 X117.4625 Y-29.7943
G01 X117.4582 Y-29.7982
G01 X117.4543 Y-29.8025
G01 X117.4509 Y-29.8072
G01 X117.4479 Y-29.8121
G01 X117.4454 Y-29.8174
G01 X117.4434 Y-29.8228
G01 X117.4420 Y-29.8285
G01 X117.4403 Y-29.8400
G01 X117.2784 Y-29.8400
G01 X117.2849 Y-29.8828
G01 X117.2901 Y-29.9037
G01 X117.2974 Y-29.9239
G01 X117.3066 Y-29.9434
G01 X117.3177 Y-29.9618
G01 X117.3305 Y-29.9791
G01 X117.3449 Y-29.9951
G01 X117.3609 Y-30.0095
G01 X117.3782 Y-30.0223
G01 X117.3966 Y-30.0334
G01 X117.4161 Y-30.0426
G01 X117.4363 Y-30.0499
G01 X117.4572 Y-30.0551
G01 X117.4785 Y-30.0582
G01 X117.5000 Y-30.0593
G01 X117.5215 Y-30.0582
G01 X117.5428 Y-30.0551
G01 X117.5637 Y-30.0499
G01 X117.5839 Y-30.0426
G01 X117.6034 Y-30.0334
G01 X117.6218 Y-30.0223
G01 X117.6391 Y-30.0095
G01 X117.6551 Y-29.9951
G01 X117.6695 Y-29.9791
G01 X117.6823 Y-29.9618
G01 X117.6934 Y-29.9434
G01 X117.7026 Y-29.9239
G01 X117.7099 Y-29.9037
G01 X117.7151 Y-29.8828
G01 X117.7182 Y-29.8615
G01 X117.7193 Y-29.8400
G01 X117.7182 Y-29.8185
G01 X117.7151 Y-29.7972
G01 X117.7099 Y-29.7763
G01 X117.7026 Y-29.7561
G01 X117.6934 Y-29.7366
G01 X117.6823 Y-29.7182
G01 X117.6695 Y-29.7009
G01 X117.6551 Y-29.6849
G01 X117.6391 Y-29.6705
G01 X117.6218 Y-29.6577
G01 X117.6034 Y-29.6466
G01 X117.5839 Y-29.6374
G01 X117.5637 Y-29.6301
G01 X117.5428 Y-29.6249
G01 X117.5215 Y-29.6218
G01 X117.5000 Y-29.6207
G01 X117.4785 Y-29.6218
G01 X117.4572 Y-29.6249
G01 X117.4363 Y-29.6301
G01 X117.4161 Y-29.6374
G01 X117.3966 Y-29.6466
G01 X117.3782 Y-29.6577
G01 X117.3609 Y-29.6705
G01 X117.3449 Y-29.6849
G01 X117.3305 Y-29.7009
G01 X117.3177 Y-29.7182
G01 X117.3066 Y-29.7366
G01 X117.2974 Y-29.7561
G01 X117.2901 Y-29.7763
G01 X117.2849 Y-29.7972
G01 X117.2784 Y-29.8400
G01 X117.1150 Y-29.8400
G01 X117.1184 Y-29.8554
G01 X117.1212 Y-29.8699
G01 X117.1278 Y-29.9140
G01 X117.1368 Y-29.9502
G01 X117.1494 Y-29.9852
G01 X117.1653 Y-30.0189
G01 X117.1845 Y-30.0508
G01 X117.2066 Y-30.0807
G01 X117.2317 Y-30.1083
G01 X117.2593 Y-30.1334
G01 X117.2892 Y-30.1555
G01 X117.3211 Y-30.1747
G01 X117.3548 Y-30.1906
G01 X117.3898 Y-30.2032
G01 X117.4260 Y-30.2122
G01 X117.4628 Y-30.2177
G01 X117.5000 Y-30.2195
G01 X117.5372 Y-30.2177
G01 X117.5740 Y-30.2122
G01 X117.6102 Y-30.2032
G01 X117.6452 Y-30.1906
G01 X117.6789 Y-30.1747
G01 X117.7108 Y-30.1555
G01 X117.7407 Y-30.1334
G01 X117.7683 Y-30.1083
G01 X117.7934 Y-30.0807
G01 X117.8155 Y-30.0508
G01 X117.8347 Y-30.0189
G01 X117.8506 Y-29.9852
G01 X117.8632 Y-29.9502
G01 X117.8722 Y-29.9140
G01 X117.8777 Y-29.8772
G01 X117.8795 Y-29.8400
G01 X117.8777 Y-29.8028
G01 X117.8722 Y-29.7660
G01 X117.8632 Y-29.7298
G01 X117.8506 Y-29.6948
G01 X117.8347 Y-29.6611
G01 X117.8155 Y-29.6292
G01 X117.7934 Y-29.5993
G01 X117.7683 Y-29.5717
G01 X117.7407 Y-29.5466
G01 X117.7108 Y-29.5245
G01 X117.6789 Y-29.5053
G01 X117.6452 Y-29.4894
G01 X117.6102 Y-29.4768
G01 X117.5740 Y-29.4678
G01 X117.5372 Y-29.4623
G01 X117.5000 Y-29.4605
G01 X117.4628 Y-29.4623
G01 X117.4260 Y-29.4678
G01 X117.3898 Y-29.4768
G01 X117.3548 Y-29.4894
G01 X117.3211 Y-29.5053
G01 X117.2892 Y-29.5245
G01 X117.2593 Y-29.5466
G01 X117.2317 Y-29.5717
G01 X117.2066 Y-29.5993
G01 X117.1845 Y-29.6292
G01 X117.1653 Y-29.6611
G01 X117.1494 Y-29.6948
G01 X117.1368 Y-29.7298
G01 X117.1278 Y-29.7660
G01 X117.1212 Y-29.8101
G01 X117.1184 Y-29.8246
G01 X117.1150 Y-29.8400
G01 X116.9470 Y-29.8400
G01 X116.9541 Y-29.8589
G01 X116.9601 Y-29.8804
G01 X116.9635 Y-29.8974
G01 X116.9707 Y-29.9453
G01 X116.9836 Y-29.9967
G01 X117.0014 Y-30.0465
G01 X117.0240 Y-30.0944
G01 X117.0513 Y-30.1398
G01 X117.0828 Y-30.1824
G01 X117.1184 Y-30.2216
G01 X117.1576 Y-30.2572
G01 X117.2002 Y-30.2887
G01 X117.2456 Y-30.3160
G01 X117.2935 Y-30.3386
G01 X117.3433 Y-30.3564
G01 X117.3947 Y-30.3693
G01 X117.4471 Y-30.3771
G01 X117.5000 Y-30.3797
G01 X117.5529 Y-30.3771
G01 X117.6053 Y-30.3693
G01 X117.6567 Y-30.3564
G01 X117.7065 Y-30.3386
G01 X117.7544 Y-30.3160
G01 X117.7998 Y-30.2887
G01 X117.8424 Y-30.2572
G01 X117.8816 Y-30.2216
G01 X117.9172 Y-30.1824
G01 X117.9487 Y-30.1398
G01 X117.9760 Y-30.0944
G01 X117.9986 Y-30.0465
G01 X118.0164 Y-29.9967
G01 X118.0293 Y-29.9453
G01 X118.0371 Y-29.8929
G01 X118.0397 Y-29.8400
G01 X118.0371 Y-29.7871
G01 X118.0293 Y-29.7347
G01 X118.0164 Y-29.6833
G01 X117.9986 Y-29.6335
G01 X117.9760 Y-29.5856
G01 X117.9487 Y-29.5402
G01 X117.9172 Y-29.4976
G01 X117.8816 Y-29.4584
G01 X117.8424 Y-29.4228
G01 X117.7998 Y-29.3913
G01 X117.7544 Y-29.3640
G01 X117.7065 Y-29.3414
G01 X117.6567 Y-29.3236
G01 X117.6053 Y-29.3107
G01 X117.5529 Y-29.3029
G01 X117.5000 Y-29.3003
G01 X117.4471 Y-29.3029
G01 X117.3947 Y-29.3107
G01 X117.3433 Y-29.3236
G01 X117.2935 Y-29.3414
G01 X117.2456 Y-29.3640
G01 X117.2002 Y-29.3913
G01 X117.1576 Y-29.4228
G01 X117.1184 Y-29.4584
G01 X117.0828 Y-29.4976
G01 X117.0513 Y-29.5402
G01 X117.0240 Y-29.5856
G01 X117.0014 Y-29.6335
G01 X116.9836 Y-29.6833
G01 X116.9707 Y-29.7347
G01 X116.9635 Y-29.7826
G01 X116.9601 Y-29.7996
G01 X116.9541 Y-29.8211
G01 X116.9470 Y-29.8400
G00 Z1.0000
G00 X117.4403 Y-32.3800
G01 F30.00
G01 Z0.0000
G01 F100.00
G01 X117.4420 Y-32.3915
G01 X117.4434 Y-32.3972
G01 X117.4454 Y-32.4026
G01 X117.4479 Y-32.4079
G01 X117.4509 Y-32.4128
G01 X117.4543 Y-32.4175
G01 X117.4582 Y-32.4218
G01 X117.4625 Y-32.4257
G01 X117.4672 Y-32.4291
G01 X117.4721 Y-32.4321
G01 X117.4774 Y-32.4346
G01 X117.4828 Y-32.4366
G01 X117.4885 Y-32.4380
G01 X117.4942 Y-32.4388
G01 X117.5000 Y-32.4391
G01 X117.5058 Y-32.4388
G01 X117.5115 Y-32.4380
G01 X117.5172 Y-32.4366
G01 X117.5226 Y-32.4346
G01 X117.5279 Y-32.4321
G01 X117.5328 Y-32.4291
G01 X117.5375 Y-32.4257
G01 X117.5418 Y-32.4218
G01 X117.5457 Y-32.4175
G01 X117.5491 Y-32.4128
G01 X117.5521 Y-32.4079
G01 X117.5546 Y-32.4026
G01 X117.5566 Y-32.3972
G01 X117.5580 Y-32.3915
G01 X117.5588 Y-32.3858
G01 X117.5591 Y-32.3800
G01 X117.5588 Y-32.3742
G01 X117.5580 Y-32.3685
G01 X117.5566 Y-32.3628
G01 X117.5546 Y-32.3574
G01 X117.5521 Y-32.3521
G01 X117.5491 Y-32.3472
G01 X117.5457 Y-32.3425
G01 X117.5418 Y-32.3382
G01 X117.5375 Y-32.3343
G01 X117.5328 Y-32.3309
G01 X117.5279 Y-32.3279
G01 X117.5226 Y-32.3254
G01 X117.5172 Y-32.3234
G01 X117.5115 Y-32.3220
G01 X117.5058 Y-32.3212
G01 X117.5000 Y-32.3209
G01 X117.4942 Y-32.3212
G01 X117.4885 Y-32.3220
G01 X117.4828 Y-32.3234
G01 X117.4774 Y-32.3254
G01 X117.4721 Y-32.3279
G01 X117.4672 Y-32.3309
G01 X117.4625 Y-32.3343
G01 X117.4582 Y-32.3382
G01 X117.4543 Y-32.3425
G01 X117.4509 Y-32.3472
G01 X117.4479 Y-32.3521
G01 X117.4454 Y-32.3574
G01 X117.4434 Y-32.3628
G01 X117.4420 Y-32.3685
G01 X117.4403 Y-32.3800
G01 X117.2784 Y-32.3800
G01 X117.2849 Y-32.4228
G01 X117.2901 Y-32.4437
G01 X117.2974 Y-32.4639
G01 X117.3066 Y-32.4834
G01 X117.3177 Y-32.5018
G01 X117.3305 Y-32.5191
G01 X117.3449 Y-32.5351
G01 X117.3609 Y-32.5495
G01 X117.3782 Y-32.5623
G01 X117.3966 Y-32.5734
G01 X117.4161 Y-32.5826
G01 X117.4363 Y-32.5899
G01 X117.4572 Y-32.5951
G01 X117.4785 Y-32.5982
G01 X117.5000 Y-32.5993
G01 X117.5215 Y-32.5982
G01 X117.5428 Y-32.5951
G01 X117.5637 Y-32.5899
G01 X117.5839 Y-32.5826
G01 X117.6034 Y-32.5734
G01 X117.6218 Y-32.5623
G01 X117.6391 Y-32.5495
G01 X117.6551 Y-32.5351
G01 X117.6695 Y-32.5191
G01 X117.6823 Y-32.5018
G01 X117.6934 Y-32.4834
G01 X117.7026 Y-32.4639
G01 X117.7099 Y-32.4437
G01 X117.7151 Y-32.4228
G01 X117.7182 Y-32.4015
G01 X117.7193 Y-32.3800
G01 X117.7182 Y-32.3585
G01 X117.7151 Y-32.3372
G01 X117.7099 Y-32.3163
G01 X117.7026 Y-32.2961
G01 X117.6934 Y-32.2766
G01 X117.6823 Y-32.2582
G01 X117.6695 Y-32.2409
G01 X117.6551 Y-32.2249
G01 X117.6391 Y-32.2105
G01 X117.6218 Y-32.1977
G01 X117.6034 Y-32.1866
G01 X117.5839 Y-32.1774
G01 X117.5637 Y-32.1701
G01 X117.5428 Y-32.1649
G01 X117.5215 Y-32.1618
G01 X117.5000 Y-32.1607
G01 X117.4785 Y-32.1618
G01 X117.4572 Y-32.1649
G01 X117.4363 Y-32.1701
G01 X117.4161 Y-32.1774
G01 X117.3966 Y-32.1866
G01 X117.3782 Y-32.1977
G01 X117.3609 Y-32.2105
G01 X117.3449 Y-32.2249
G01 X117.3305 Y-32.2409
G01 X117.3177 Y-32.2582
G01 X117.3066 Y-32.2766
G01 X117.2974 Y-32.2961
G01 X117.2901 Y-32.3163
G01 X117.2849 Y-32.3372
G01 X117.2784 Y-32.3800
G01 X117.1150 Y-32.3800
G01 X117.1184 Y-32.3954
G01 X117.1212 Y-32.4099
G01 X117.1278 Y-32.4540
G01 X117.1368 Y-32.4902
G01 X117.1494 Y-32.5252
G01 X117.1653 Y-32.5589
G01 X117.1845 Y-32.5908
G01 X117.2066 Y-32.6207
G01 X117.2317 Y-32.6483
G01 X117.2593 Y-32.6734
G01 X117.2892 Y-32.6955
G01 X117.3211 Y-32.7147
G01 X117.3548 Y-32.7306
G01 X117.3898 Y-32.7432
G01 X117.4260 Y-32.7522
G01 X117.4628 Y-32.7577
G01 X117.5000 Y-32.7595
G01 X117.5372 Y-32.7577
G01 X117.5740 Y-32.7522
G01 X117.6102 Y-32.7432
G01 X117.6452 Y-32.7306
G01 X117.6789 Y-32.7147
G01 X117.7108 Y-32.6955
G01 X117.7407 Y-32.6734
G01 X117.7683 Y-32.6483
G01 X117.7934 Y-32.6207
G01 X117.8155 Y-32.5908
G01 X117.8347 Y-32.5589
G01 X117.8506 Y-32.5252
G01 X117.8632 Y-32.4902
G01 X117.8722 Y-32.4540
G01 X117.8777 Y-32.4172
G01 X117.8795 Y-32.3800
G01 X117.8777 Y-32.3428
G01 X117.8722 Y-32.3060
G01 X117.8632 Y-32.2698
G01 X117.8506 Y-32.2348
G01 X117.8347 Y-32.2011
G01 X117.8155 Y-32.1692
G01 X117.7934 Y-32.1393
G01 X117.7683 Y-32.1117
G01 X117.7407 Y-32.0866
G01 X117.7108 Y-32.0645
G01 X117.6789 Y-32.0453
G01 X117.6452 Y-32.0294
G01 X117.6102 Y-32.0168
G01 X117.5740 Y-32.0078
G01 X117.5372 Y-32.0023
G01 X117.5000 Y-32.0005
G01 X117.4628 Y-32.0023
G01 X117.4260 Y-32.0078
G01 X117.3898 Y-32.0168
G01 X117.3548 Y-32.0294
G01 X117.3211 Y-32.0453
G01 X117.2892 Y-32.0645
G01 X117.2593 Y-32.0866
G01 X117.2317 Y-32.1117
G01 X117.2066 Y-32.1393
G01 X117.1845 Y-32.1692
G01 X117.1653 Y-32.2011
G01 X117.1494 Y-32.2348
G01 X117.1368 Y-32.2698
G01 X117.1278 Y-32.3060
G01 X117.1212 Y-32.3501
G01 X117.1184 Y-32.3646
G01 X117.1150 Y-32.3800
G01 X116.9470 Y-32.3800
G01 X116.9541 Y-32.3989
G01 X116.9601 Y-32.4204
G01 X116.9635 Y-32.4374
G01 X116.9707 Y-32.4853
G01 X116.9836 Y-32.5367
G01 X117.0014 Y-32.5865
G01 X117.0240 Y-32.6344
G01 X117.0513 Y-32.6798
G01 X117.0828 Y-32.7224
G01 X117.1184 Y-32.7616
G01 X117.1576 Y-32.7972
G01 X117.2002 Y-32.8287
G01 X117.2456 Y-32.8560
G01 X117.2935 Y-32.8786
G01 X117.3433 Y-32.8964
G01 X117.3947 Y-32.9093
G01 X117.4471 Y-32.9171
G01 X117.5000 Y-32.9197
G01 X117.5529 Y-32.9171
G01 X117.6053 Y-32.9093
G01 X117.6567 Y-32.8964
G01 X117.7065 Y-32.8786
G01 X117.7544 Y-32.8560
G01 X117.7998 Y-32.8287
G01 X117.8424 Y-32.7972
G01 X117.8816 Y-32.7616
G01 X117.9172 Y-32.7224
G01 X117.9487 Y-32.6798
G01 X117.9760 Y-32.6344
G01 X117.9986 Y-32.5865
G01 X118.0164 Y-32.5367
G01 X118.0293 Y-32.4853
G01 X118.0371 Y-32.4329
G01 X118.0397 Y-32.3800
G01 X118.0371 Y-32.3271
G01 X118.0293 Y-32.2747
G01 X118.0164 Y-32.2233
G01 X117.9986 Y-32.1735
G01 X117.9760 Y-32.1256
G01 X117.9487 Y-32.0802
G01 X117.9172 Y-32.0376
G01 X117.8816 Y-31.9984
G01 X117.8424 Y-31.9628
G01 X117.7998 Y-31.9313
G01 X117.7544 Y-31.9040
G01 X117.7065 Y-31.8814
G01 X117.6567 Y-31.8636
G01 X117.6053 Y-31.8507
G01 X117.5529 Y-31.8429
G01 X117.5000 Y-31.8403
G01 X117.4471 Y-31.8429
G01 X117.3947 Y-31.8507
G01 X117.3433 Y-31.8636
G01 X117.2935 Y-31.8814
G01 X117.2456 Y-31.9040
G01 X117.2002 Y-31.9313
G01 X117.1576 Y-31.9628
G01 X117.1184 Y-31.9984
G01 X117.0828 Y-32.0376
G01 X117.0513 Y-32.0802
G01 X117.0240 Y-32.1256
G01 X117.0014 Y-32.1735
G01 X116.9836 Y-32.2233
G01 X116.9707 Y-32.2747
G01 X116.9635 Y-32.3226
G01 X116.9601 Y-32.3396
G01 X116.9541 Y-32.3611
G01 X116.9470 Y-32.3800
G00 Z1.0000
G00 X117.4414 Y-34.9317
G01 F30.00
G01 Z0.0000
G01 F100.00
G01 X117.4454 Y-34.9426
G01 X117.4479 Y-34.9479
G01 X117.4509 Y-34.9528
G01 X117.4543 Y-34.9575
G01 X117.4582 Y-34.9618
G01 X117.4625 Y-34.9657
G01 X117.4672 Y-34.9691
G01 X117.4721 Y-34.9721
G01 X117.4774 Y-34.9746
G01 X117.4828 Y-34.9766
G01 X117.4885 Y-34.9780
G01 X117.4942 Y-34.9788
G01 X117.5000 Y-34.9791
G01 X117.5058 Y-34.9788
G01 X117.5115 Y-34.9780
G01 X117.5172 Y-34.9766
G01 X117.5226 Y-34.9746
G01 X117.5279 Y-34.9721
G01 X117.5328 Y-34.9691
G01 X117.5375 Y-34.9657
G01 X117.5418 Y-34.9618
G01 X117.5457 Y-34.9575
G01 X117.5491 Y-34.9528
G01 X117.5521 Y-34.9479
G01 X117.5546 Y-34.9426
G01 X117.5566 Y-34.9372
G01 X117.5580 Y-34.9315
G01 X117.5588 Y-34.9258
G01 X117.5591 Y-34.9200
G01 X117.5588 Y-34.9142
G01 X117.5580 Y-34.9085
G01 X117.5566 Y-34.9028
G01 X117.5546 Y-34.8974
G01 X117.5521 Y-34.8921
G01 X117.5491 Y-34.8872
G01 X117.5457 Y-34.8825
G01 X117.5418 Y-34.8782
G01 X117.5375 Y-34.8743
G01 X117.5328 Y-34.8709
G01 X117.5279 Y-34.8679
G01 X117.5226 Y-34.8654
G01 X117.5172 Y-34.8634
G01 X117.5115 Y-34.8620
G01 X117.5058 Y-34.8612
G01 X117.5000 Y-34.8609
G01 X117.4942 Y-34.8612
G01 X117.4885 Y-34.8620
G01 X117.4828 Y-34.8634
G01 X117.4774 Y-34.8654
G01 X117.4721 Y-34.8679
G01 X117.4672 Y-34.8709
G01 X117.4625 Y-34.8743
G01 X117.4582 Y-34.8782
G01 X117.4543 Y-34.8825
G01 X117.4509 Y-34.8872
G01 X117.4479 Y-34.8921
G01 X117.4454 Y-34.8974
G01 X117.4434 Y-34.9028
G01 X117.4420 Y-34.9085
G01 X117.4412 Y-34.9142
G01 X117.4409 Y-34.9200
G01 X117.4414 Y-34.9317
G01 X117.2818 Y-34.9636
G01 X117.2895 Y-34.9824
G01 X117.2974 Y-35.0039
G01 X117.3066 Y-35.0234
G01 X117.3177 Y-35.0418
G01 X117.3305 Y-35.0591
G01 X117.3449 Y-35.0751
G01 X117.3609 Y-35.0895
G01 X117.3782 Y-35.1023
G01 X117.3966 Y-35.1134
G01 X117.4161 Y-35.1226
G01 X117.4363 Y-35.1299
G01 X117.4572 Y-35.1351
G01 X117.4785 Y-35.1382
G01 X117.5000 Y-35.1393
G01 X117.5215 Y-35.1382
G01 X117.5428 Y-35.1351
G01 X117.5637 Y-35.1299
G01 X117.5839 Y-35.1226
G01 X117.6034 Y-35.1134
G01 X117.6218 Y-35.1023
G01 X117.6391 Y-35.0895
G01 X117.6551 Y-35.0751
G01 X117.6695 Y-35.0591
G01 X117.6823 Y-35.0418
G01 X117.6934 Y-35.0234
G01 X117.7026 Y-35.0039
G01 X117.7099 Y-34.9837
G01 X117.7151 Y-34.9628
G01 X117.7182 Y-34.9415
G01 X117.7193 Y-34.9200
G01 X117.7182 Y-34.8985
G01 X117.7151 Y-34.8772
G01 X117.7099 Y-34.8563
G01 X117.7026 Y-34.8361
G01 X117.6934 Y-34.8166
G01 X117.6823 Y-34.7982
G01 X117.6695 Y-34.7809
G01 X117.6551 Y-34.7649
G01 X117.6391 Y-34.7505
G01 X117.6218 Y-34.7377
G01 X117.6034 Y-34.7266
G01 X117.5839 Y-34.7174
G01 X117.5637 Y-34.7101
G01 X117.5428 Y-34.7049
G01 X117.5215 Y-34.7018
G01 X117.5000 Y-34.7007
G01 X117.4785 Y-34.7018
G01 X117.4572 Y-34.7049
G01 X117.4363 Y-34.7101
G01 X117.4161 Y-34.7174
G01 X117.3966 Y-34.7266
G01 X117.3782 Y-34.7377
G01 X117.3609 Y-34.7505
G01 X117.3449 Y-34.7649
G01 X117.3305 Y-34.7809
G01 X117.3177 Y-34.7982
G01 X117.3066 Y-34.8166
G01 X117.2974 Y-34.8361
G01 X117.2901 Y-34.8563
G01 X117.2849 Y-34.8772
G01 X117.2818 Y-34.8985
G01 X117.2807 Y-34.9200
G01 X117.2816 Y-34.9435
G01 X117.2818 Y-34.9636
G01 X117.1200 Y-34.9959
G01 X117.1273 Y-35.0105
G01 X117.1339 Y-35.0248
G01 X117.1415 Y-35.0435
G01 X117.1494 Y-35.0652
G01 X117.1653 Y-35.0989
G01 X117.1845 Y-35.1308
G01 X117.2066 Y-35.1607
G01 X117.2317 Y-35.1883
G01 X117.2593 Y-35.2134
G01 X117.2892 Y-35.2355
G01 X117.3211 Y-35.2547
G01 X117.3548 Y-35.2706
G01 X117.3898 Y-35.2832
G01 X117.4260 Y-35.2922
G01 X117.4628 Y-35.2977
G01 X117.5000 Y-35.2995
G01 X117.5372 Y-35.2977
G01 X117.5740 Y-35.2922
G01 X117.6102 Y-35.2832
G01 X117.6452 Y-35.2706
G01 X117.6789 Y-35.2547
G01 X117.7108 Y-35.2355
G01 X117.7407 Y-35.2134
G01 X117.7683 Y-35.1883
G01 X117.7934 Y-35.1607
G01 X117.8155 Y-35.1308
G01 X117.8347 Y-35.0989
G01 X117.8506 Y-35.0652
G01 X117.8632 Y-35.0302
G01 X117.8722 Y-34.9940
G01 X117.8777 Y-34.9572
G01 X117.8795 Y-34.9200
G01 X117.8777 Y-34.8828
G01 X117.8722 Y-34.8460
G01 X117.8632 Y-34.8098
G01 X117.8506 Y-34.7748
G01 X117.8347 Y-34.7411
G01 X117.8155 Y-34.7092
G01 X117.7934 Y-34.6793
G01 X117.7683 Y-34.6517
G01 X117.7407 Y-34.6266
G01 X117.7108 Y-34.6045
G01 X117.6789 Y-34.5853
G01 X117.6452 Y-34.5694
G01 X117.6102 Y-34.5568
G01 X117.5740 Y-34.5478
G01 X117.5372 Y-34.5423
G01 X117.5000 Y-34.5405
G01 X117.4628 Y-34.5423
G01 X117.4260 Y-34.5478
G01 X117.3898 Y-34.5568
G01 X117.3548 Y-34.5694
G01 X117.3211 Y-34.5853
G01 X117.2892 Y-34.6045
G01 X117.2593 Y-34.6266
G01 X117.2317 Y-34.6517
G01 X117.2066 Y-34.6793
G01 X117.1845 Y-34.7092
G01 X117.1653 Y-34.7411
G01 X117.1494 Y-34.7748
G01 X117.1368 Y-34.8098
G01 X117.1278 Y-34.8460
G01 X117.1223 Y-34.8828
G01 X117.1205 Y-34.9200
G01 X117.1217 Y-34.9477
G01 X117.1217 Y-34.9671
G01 X117.1200 Y-34.9959
G01 X116.9514 Y-35.0295
G01 X116.9599 Y-35.0407
G01 X116.9670 Y-35.0510
G01 X116.9735 Y-35.0616
G01 X116.9795 Y-35.0725
G01 X116.9850 Y-35.0837
G01 X116.9899 Y-35.0952
G01 X117.0014 Y-35.1265
G01 X117.0240 Y-35.1744
G01 X117.0513 Y-35.2198
G01 X117.0828 Y-35.2624
G01 X117.1184 Y-35.3016
G01 X117.1576 Y-35.3372
G01 X117.2002 Y-35.3687
G01 X117.2456 Y-35.3960
G01 X117.2935 Y-35.4186
G01 X117.3433 Y-35.4364
G01 X117.3947 Y-35.4493
G01 X117.4471 Y-35.4571
G01 X117.5000 Y-35.4597
G01 X117.5529 Y-35.4571
G01 X117.6053 Y-35.4493
G01 X117.6567 Y-35.4364
G01 X117.7065 Y-35.4186
G01 X117.7544 Y-35.3960
G01 X117.7998 Y-35.3687
G01 X117.8424 Y-35.3372
G01 X117.8816 Y-35.3016
G01 X117.9172 Y-35.2624
G01 X117.9487 Y-35.2198
G01 X117.9760 Y-35.1744
G01 X117.9986 Y-35.1265
G01 X118.0164 Y-35.0767
G01 X118.0293 Y-35.0253
G01 X118.0371 Y-34.9729
G01 X118.0397 Y-34.9200
G01 X118.0371 Y-34.8671
G01 X118.0293 Y-34.8147
G01 X118.0164 Y-34.7633
G01 X117.9986 Y-34.7135
G01 X117.9760 Y-34.6656
G01 X117.9487 Y-34.6202
G01 X117.9172 Y-34.5776
G01 X117.8816 Y-34.5384
G01 X117.8424 Y-34.5028
G01 X117.7998 Y-34.4713
G01 X117.7544 Y-34.4440
G01 X117.7065 Y-34.4214
G01 X117.6567 Y-34.4036
G01 X117.6053 Y-34.3907
G01 X117.5529 Y-34.3829
G01 X117.5000 Y-34.3803
G01 X117.4471 Y-34.3829
G01 X117.3947 Y-34.3907
G01 X117.3433 Y-34.4036
G01 X117.2935 Y-34.4214
G01 X117.2456 Y-34.4440
G01 X117.2002 Y-34.4713
G01 X117.1576 Y-34.5028
G01 X117.1184 Y-34.5384
G01 X117.0828 Y-34.5776
G01 X117.0513 Y-34.6202
G01 X117.0240 Y-34.6656
G01 X117.0014 Y-34.7135
G01 X116.9836 Y-34.7633
G01 X116.9707 Y-34.8147
G01 X116.9629 Y-34.8671
G01 X116.9603 Y-34.9200
G01 X116.9618 Y-34.9541
G01 X116.9616 Y-34.9662
G01 X116.9609 Y-34.9782
G01 X116.9596 Y-34.9902
G01 X116.9571 Y-35.0058
G01 X116.9546 Y-35.0175
G01 X116.9514 Y-35.0295
G00 Z1.0000
G00 X117.4412 Y-37.4658
G01 F30.00
G01 Z0.0000
G01 F100.00
G01 X117.4420 Y-37.4715
G01 X117.4434 Y-37.4772
G01 X117.4454 Y-37.4826
G01 X117.4479 Y-37.4879
G01 X117.4509 Y-37.4928
G01 X117.4543 Y-37.4975
G01 X117.4582 Y-37.5018
G01 X117.4625 Y-37.5057
G01 X117.4672 Y-37.5091
G01 X117.4721 Y-37.5121
G01 X117.4774 Y-37.5146
G01 X117.4828 Y-37.5166
G01 X117.4885 Y-37.5180
G01 X117.4942 Y-37.5188
G01 X117.5000 Y-37.5191
G01 X117.5058 Y-37.5188
G01 X117.5115 Y-37.5180
G01 X117.5172 Y-37.5166
G01 X117.5226 Y-37.5146
G01 X117.5279 Y-37.5121
G01 X117.5328 Y-37.5091
G01 X117.5375 Y-37.5057
G01 X117.5418 Y-37.5018
G01 X117.5457 Y-37.4975
G01 X117.5491 Y-37.4928
G01 X117.5521 Y-37.4879
G01 X117.5546 Y-37.4826
G01 X117.5566 Y-37.4772
G01 X117.5580 Y-37.4715
G01 X117.5588 Y-37.4658
G01 X117.5591 Y-37.4600
G01 X117.5588 Y-37.4542
G01 X117.5580 Y-37.4485
G01 X117.5566 Y-37.4428
G01 X117.5546 Y-37.4374
G01 X117.5521 Y-37.4321
G01 X117.5491 Y-37.4272
G01 X117.5457 Y-37.4225
G01 X117.5418 Y-37.4182
G01 X117.5375 Y-37.4143
G01 X117.5328 Y-37.4109
G01 X117.5279 Y-37.4079
G01 X117.5226 Y-37.4054
G01 X117.5172 Y-37.4034
G01 X117.5115 Y-37.4020
G01 X117.5058 Y-37.4012
G01 X117.5000 Y-37.4009
G01 X117.4942 Y-37.4012
G01 X117.4885 Y-37.4020
G01 X117.4828 Y-37.4034
G01 X117.4774 Y-37.4054
G01 X117.4721 Y-37.4079
G01 X117.4672 Y-37.4109
G01 X117.4625 Y-37.4143
G01 X117.4582 Y-37.4182
G01 X117.4543 Y-37.4225
G01 X117.4509 Y-37.4272
G01 X117.4479 Y-37.4321
G01 X117.4454 Y-37.4374
G01 X117.4434 Y-37.4428
G01 X117.4420 Y-37.4485
G01 X117.4412 Y-37.4542
G01 X117.4409 Y-37.4600
G01 X117.4412 Y-37.4658
G01 X117.2818 Y-37.4815
G01 X117.2849 Y-37.5028
G01 X117.2901 Y-37.5237
G01 X117.2974 Y-37.5439
G01 X117.3066 Y-37.5634
G01 X117.3177 Y-37.5818
G01 X117.3305 Y-37.5991
G01 X117.3449 Y-37.6151
G01 X117.3609 Y-37.6295
G01 X117.3782 Y-37.6423
G01 X117.3966 Y-37.6534
G01 X117.4161 Y-37.6626
G01 X117.4363 Y-37.6699
G01 X117.4572 Y-37.6751
G01 X117.4785 Y-37.6782
G01 X117.5000 Y-37.6793
G01 X117.5215 Y-37.6782
G01 X117.5428 Y-37.6751
G01 X117.5637 Y-37.6699
G01 X117.5839 Y-37.6626
G01 X117.6034 Y-37.6534
G01 X117.6218 Y-37.6423
G01 X117.6391 Y-37.6295
G01 X117.6551 Y-37.6151
G01 X117.6695 Y-37.5991
G01 X117.6823 Y-37.5818
G01 X117.6934 Y-37.5634
G01 X117.7026 Y-37.5439
G01 X117.7099 Y-37.5237
G01 X117.7151 Y-37.5028
G01 X117.7182 Y-37.4815
G01 X117.7193 Y-37.4600
G01 X117.7182 Y-37.4385
G01 X117.7151 Y-37.4172
G01 X117.7099 Y-37.3963
G01 X117.7026 Y-37.3761
G01 X117.6934 Y-37.3566
G01 X117.6823 Y-37.3382
G01 X117.6695 Y-37.3209
G01 X117.6551 Y-37.3049
G01 X117.6391 Y-37.2905
G01 X117.6218 Y-37.2777
G01 X117.6034 Y-37.2666
G01 X117.5839 Y-37.2574
G01 X117.5637 Y-37.2501
G01 X117.5428 Y-37.2449
G01 X117.5215 Y-37.2418
G01 X117.5000 Y-37.2407
G01 X117.4785 Y-37.2418
G01 X117.4572 Y-37.2449
G01 X117.4363 Y-37.2501
G01 X117.4161 Y-37.2574
G01 X117.3966 Y-37.2666
G01 X117.3782 Y-37.2777
G01 X117.3609 Y-37.2905
G01 X117.3449 Y-37.3049
G01 X117.3305 Y-37.3209
G01 X117.3177 Y-37.3382
G01 X117.3066 Y-37.3566
G01 X117.2974 Y-37.3761
G01 X117.2901 Y-37.3963
G01 X117.2849 Y-37.4172
G01 X117.2818 Y-37.4385
G01 X117.2807 Y-37.4600
G01 X117.2818 Y-37.4815
G01 X117.1223 Y-37.4972
G01 X117.1278 Y-37.5340
G01 X117.1368 Y-37.5702
G01 X117.1494 Y-37.6052
G01 X117.1653 Y-37.6389
G01 X117.1845 Y-37.6708
G01 X117.2066 Y-37.7007
G01 X117.2317 Y-37.7283
G01 X117.2593 Y-37.7534
G01 X117.2892 Y-37.7755
G01 X117.3211 Y-37.7947
G01 X117.3548 Y-37.8106
G01 X117.3898 Y-37.8232
G01 X117.4260 Y-37.8322
G01 X117.4628 Y-37.8377
G01 X117.5000 Y-37.8395
G01 X117.5372 Y-37.8377
G01 X117.5740 Y-37.8322
G01 X117.6102 Y-37.8232
G01 X117.6452 Y-37.8106
G01 X117.6789 Y-37.7947
G01 X117.7108 Y-37.7755
G01 X117.7407 Y-37.7534
G01 X117.7683 Y-37.7283
G01 X117.7934 Y-37.7007
G01 X117.8155 Y-37.6708
G01 X117.8347 Y-37.6389
G01 X117.8506 Y-37.6052
G01 X117.8632 Y-37.5702
G01 X117.8722 Y-37.5340
G01 X117.8777 Y-37.4972
G01 X117.8795 Y-37.4600
G01 X117.8777 Y-37.4228
G01 X117.8722 Y-37.3860
G01 X117.8632 Y-37.3498
G01 X117.8506 Y-37.3148
G01 X117.8347 Y-37.2811
G01 X117.8155 Y-37.2492
G01 X117.7934 Y-37.2193
G01 X117.7683 Y-37.1917
G01 X117.7407 Y-37.1666
G01 X117.7108 Y-37.1445
G01 X117.6789 Y-37.1253
G01 X117.6452 Y-37.1094
G01 X117.6102 Y-37.0968
G01 X117.5740 Y-37.0878
G01 X117.5372 Y-37.0823
G01 X117.5000 Y-37.0805
G01 X117.4628 Y-37.0823
G01 X117.4260 Y-37.0878
G01 X117.3898 Y-37.0968
G01 X117.3548 Y-37.1094
G01 X117.3211 Y-37.1253
G01 X117.2892 Y-37.1445
G01 X117.2593 Y-37.1666
G01 X117.2317 Y-37.1917
G01 X117.2066 Y-37.2193
G01 X117.1845 Y-37.2492
G01 X117.1653 Y-37.2811
G01 X117.1494 Y-37.3148
G01 X117.1368 Y-37.3498
G01 X117.1278 Y-37.3860
G01 X117.1223 Y-37.4228
G01 X117.1205 Y-37.4600
G01 X117.1223 Y-37.4972
G01 X116.9629 Y-37.5129
G01 X116.9707 Y-37.5653
G01 X116.9836 Y-37.6167
G01 X117.0014 Y-37.6665
G01 X117.0240 Y-37.7144
G01 X117.0513 Y-37.7598
G01 X117.0828 Y-37.8024
G01 X117.1184 Y-37.8416
G01 X117.1576 Y-37.8772
G01 X117.2002 Y-37.9087
G01 X117.2456 Y-37.9360
G01 X117.2935 Y-37.9586
G01 X117.3433 Y-37.9764
G01 X117.3947 Y-37.9893
G01 X117.4471 Y-37.9971
G01 X117.5000 Y-37.9997
G01 X117.5529 Y-37.9971
G01 X117.6053 Y-37.9893
G01 X117.6567 Y-37.9764
G01 X117.7065 Y-37.9586
G01 X117.7544 Y-37.9360
G01 X117.7998 Y-37.9087
G01 X117.8424 Y-37.8772
G01 X117.8816 Y-37.8416
G01 X117.9172 Y-37.8024
G01 X117.9487 Y-37.7598
G01 X117.9760 Y-37.7144
G01 X117.9986 Y-37.6665
G01 X118.0164 Y-37.6167
G01 X118.0293 Y-37.5653
G01 X118.0371 Y-37.5129
G01 X118.0397 Y-37.4600
G01 X118.0371 Y-37.4071
G01 X118.0293 Y-37.3547
G01 X118.0164 Y-37.3033
G01 X117.9986 Y-37.2535
G01 X117.9760 Y-37.2056
G01 X117.9487 Y-37.1602
G01 X117.9172 Y-37.1176
G01 X117.8816 Y-37.0784
G01 X117.8424 Y-37.0428
G01 X117.7998 Y-37.0113
G01 X117.7544 Y-36.9840
G01 X117.7065 Y-36.9614
G01 X117.6567 Y-36.9436
G01 X117.6053 Y-36.9307
G01 X117.5529 Y-36.9229
G01 X117.5000 Y-36.9203
G01 X117.4471 Y-36.9229
G01 X117.3947 Y-36.9307
G01 X117.3433 Y-36.9436
G01 X117.2935 Y-36.9614
G01 X117.2456 Y-36.9840
G01 X117.2002 Y-37.0113
G01 X117.1576 Y-37.0428
G01 X117.1184 Y-37.0784
G01 X117.0828 Y-37.1176
G01 X117.0513 Y-37.1602
G01 X117.0240 Y-37.2056
G01 X117.0014 Y-37.2535
G01 X116.9836 Y-37.3033
G01 X116.9707 Y-37.3547
G01 X116.9629 Y-37.4071
G01 X116.9603 Y-37.4600
G01 X116.9629 Y-37.5129
G01 X116.8035 Y-37.5286
G01 X116.8136 Y-37.5965
G01 X116.8303 Y-37.6632
G01 X116.8534 Y-37.7278
G01 X116.8828 Y-37.7899
G01 X116.9181 Y-37.8488
G01 X116.9590 Y-37.9040
G01 X117.0051 Y-37.9549
G01 X117.0560 Y-38.0010
G01 X117.1112 Y-38.0419
G01 X117.1701 Y-38.0772
G01 X117.2322 Y-38.1066
G01 X117.2968 Y-38.1297
G01 X117.3635 Y-38.1464
G01 X117.4314 Y-38.1565
G01 X117.5000 Y-38.1599
G01 X117.5686 Y-38.1565
G01 X117.6365 Y-38.1464
G01 X117.7032 Y-38.1297
G01 X117.7678 Y-38.1066
G01 X117.8299 Y-38.0772
G01 X117.8888 Y-38.0419
G01 X117.9440 Y-38.0010
G01 X117.9949 Y-37.9549
G01 X118.0410 Y-37.9040
G01 X118.0819 Y-37.8488
G01 X118.1172 Y-37.7899
G01 X118.1466 Y-37.7278
G01 X118.1697 Y-37.6632
G01 X118.1864 Y-37.5965
G01 X118.1965 Y-37.5286
G01 X118.1999 Y-37.4600
G01 X118.1965 Y-37.3914
G01 X118.1864 Y-37.3235
G01 X118.1697 Y-37.2568
G01 X118.1466 Y-37.1922
G01 X118.1172 Y-37.1301
G01 X118.0819 Y-37.0712
G01 X118.0410 Y-37.0160
G01 X117.9949 Y-36.9651
G01 X117.9440 Y-36.9190
G01 X117.8888 Y-36.8781
G01 X117.8299 Y-36.8428
G01 X117.7678 Y-36.8134
G01 X117.7032 Y-36.7903
G01 X117.6365 Y-36.7736
G01 X117.5686 Y-36.7635
G01 X117.5000 Y-36.7601
G01 X117.4314 Y-36.7635
G01 X117.3635 Y-36.7736
G01 X117.2968 Y-36.7903
G01 X117.2322 Y-36.8134
G01 X117.1701 Y-36.8428
G01 X117.1112 Y-36.8781
G01 X117.0560 Y-36.9190
G01 X117.0051 Y-36.9651
G01 X116.9590 Y-37.0160
G01 X116.9181 Y-37.0712
G01 X116.8828 Y-37.1301
G01 X116.8534 Y-37.1922
G01 X116.8303 Y-37.2568
G01 X116.8136 Y-37.3235
G01 X116.8035 Y-37.3914
G01 X116.8001 Y-37.4600
G01 X116.8035 Y-37.5286
G00 Z1.0000
G00 X117.4412 Y-40.0058
G01 F30.00
G01 Z0.0000
G01 F100.00
G01 X117.4420 Y-40.0115
G01 X117.4434 Y-40.0172
G01 X117.4454 Y-40.0226
G01 X117.4479 Y-40.0279
G01 X117.4509 Y-40.0328
G01 X117.4543 Y-40.0375
G01 X117.4582 Y-40.0418
G01 X117.4625 Y-40.0457
G01 X117.4672 Y-40.0491
G01 X117.4721 Y-40.0521
G01 X117.4774 Y-40.0546
G01 X117.4828 Y-40.0566
G01 X117.4885 Y-40.0580
G01 X117.4942 Y-40.0588
G01 X117.5000 Y-40.0591
G01 X117.5058 Y-40.0588
G01 X117.5115 Y-40.0580
G01 X117.5172 Y-40.0566
G01 X117.5226 Y-40.0546
G01 X117.5279 Y-40.0521
G01 X117.5328 Y-40.0491
G01 X117.5375 Y-40.0457
G01 X117.5418 Y-40.0418
G01 X117.5457 Y-40.0375
G01 X117.5491 Y-40.0328
G01 X117.5521 Y-40.0279
G01 X117.5546 Y-40.0226
G01 X117.5566 Y-40.0172
G01 X117.5580 Y-40.0115
G01 X117.5588 Y-40.0058
G01 X117.5591 Y-40.0000
G01 X117.5588 Y-39.9942
G01 X117.5580 Y-39.9885
G01 X117.5566 Y-39.9828
G01 X117.5546 Y-39.9774
G01 X117.5521 Y-39.9721
G01 X117.5491 Y-39.9672
G01 X117.5457 Y-39.9625
G01 X117.5418 Y-39.9582
G01 X117.5375 Y-39.9543
G01 X117.5328 Y-39.9509
G01 X117.5279 Y-39.9479
G01 X117.5226 Y-39.9454
G01 X117.5172 Y-39.9434
G01 X117.5115 Y-39.9420
G01 X117.5058 Y-39.9412
G01 X117.5000 Y-39.9409
G01 X117.4942 Y-39.9412
G01 X117.4885 Y-39.9420
G01 X117.4828 Y-39.9434
G01 X117.4774 Y-39.9454
G01 X117.4721 Y-39.9479
G01 X117.4672 Y-39.9509
G01 X117.4625 Y-39.9543
G01 X117.4582 Y-39.9582
G01 X117.4543 Y-39.9625
G01 X117.4509 Y-39.9672
G01 X117.4479 Y-39.9721
G01 X117.4454 Y-39.9774
G01 X117.4434 Y-39.9828
G01 X117.4420 Y-39.9885
G01 X117.4412 Y-39.9942
G01 X117.4409 Y-40.0000
G01 X117.4412 Y-40.0058
G01 X117.2818 Y-40.0215
G01 X117.2849 Y-40.0428
G01 X117.2901 Y-40.0637
G01 X117.2974 Y-40.0839
G01 X117.3066 Y-40.1034
G01 X117.3177 Y-40.1218
G01 X117.3305 Y-40.1391
G01 X117.3449 Y-40.1551
G01 X117.3609 Y-40.1695
G01 X117.3782 Y-40.1823
G01 X117.3966 Y-40.1934
G01 X117.4161 Y-40.2026
G01 X117.4363 Y-40.2099
G01 X117.4572 Y-40.2151
G01 X117.4785 Y-40.2182
G01 X117.5000 Y-40.2193
G01 X117.5215 Y-40.2182
G01 X117.5428 Y-40.2151
G01 X117.5637 Y-40.2099
G01 X117.5839 Y-40.2026
G01 X117.6034 Y-40.1934
G01 X117.6218 Y-40.1823
G01 X117.6391 Y-40.1695
G01 X117.6551 Y-40.1551
G01 X117.6695 Y-40.1391
G01 X117.6823 Y-40.1218
G01 X117.6934 Y-40.1034
G01 X117.7026 Y-40.0839
G01 X117.7099 Y-40.0637
G01 X117.7151 Y-40.0428
G01 X117.7182 Y-40.0215
G01 X117.7193 Y-40.0000
G01 X117.7182 Y-39.9785
G01 X117.7151 Y-39.9572
G01 X117.7099 Y-39.9363
G01 X117.7026 Y-39.9161
G01 X117.6934 Y-39.8966
G01 X117.6823 Y-39.8782
G01 X117.6695 Y-39.8609
G01 X117.6551 Y-39.8449
G01 X117.6391 Y-39.8305
G01 X117.6218 Y-39.8177
G01 X117.6034 Y-39.8066
G01 X117.5839 Y-39.7974
G01 X117.5637 Y-39.7901
G01 X117.5428 Y-39.7849
G01 X117.5215 Y-39.7818
G01 X117.5000 Y-39.7807
G01 X117.4785 Y-39.7818
G01 X117.4572 Y-39.7849
G01 X117.4363 Y-39.7901
G01 X117.4161 Y-39.7974
G01 X117.3966 Y-39.8066
G01 X117.3782 Y-39.8177
G01 X117.3609 Y-39.8305
G01 X117.3449 Y-39.8449
G01 X117.3305 Y-39.8609
G01 X117.3177 Y-39.8782
G01 X117.3066 Y-39.8966
G01 X117.2974 Y-39.9161
G01 X117.2901 Y-39.9363
G01 X117.2849 Y-39.9572
G01 X117.2818 Y-39.9785
G01 X117.2807 Y-40.0000
G01 X117.2818 Y-40.0215
G01 X117.1223 Y-40.0372
G01 X117.1278 Y-40.0740
G01 X117.1368 Y-40.1102
G01 X117.1494 Y-40.1452
G01 X117.1653 Y-40.1789
G01 X117.1845 Y-40.2108
G01 X117.2066 Y-40.2407
G01 X117.2317 Y-40.2683
G01 X117.2593 Y-40.2934
G01 X117.2892 Y-40.3155
G01 X117.3211 Y-40.3347
G01 X117.3548 Y-40.3506
G01 X117.3898 Y-40.3632
G01 X117.4260 Y-40.3722
G01 X117.4628 Y-40.3777
G01 X117.5000 Y-40.3795
G01 X117.5372 Y-40.3777
G01 X117.5740 Y-40.3722
G01 X117.6102 Y-40.3632
G01 X117.6452 Y-40.3506
G01 X117.6789 Y-40.3347
G01 X117.7108 Y-40.3155
G01 X117.7407 Y-40.2934
G01 X117.7683 Y-40.2683
G01 X117.7934 Y-40.2407
G01 X117.8155 Y-40.2108
G01 X117.8347 Y-40.1789
G01 X117.8506 Y-40.1452
G01 X117.8632 Y-40.1102
G01 X117.8722 Y-40.0740
G01 X117.8777 Y-40.0372
G01 X117.8795 Y-40.0000
G01 X117.8777 Y-39.9628
G01 X117.8722 Y-39.9260
G01 X117.8632 Y-39.8898
G01 X117.8506 Y-39.8548
G01 X117.8347 Y-39.8211
G01 X117.8155 Y-39.7892
G01 X117.7934 Y-39.7593
G01 X117.7683 Y-39.7317
G01 X117.7407 Y-39.7066
G01 X117.7108 Y-39.6845
G01 X117.6789 Y-39.6653
G01 X117.6452 Y-39.6494
G01 X117.6102 Y-39.6368
G01 X117.5740 Y-39.6278
G01 X117.5372 Y-39.6223
G01 X117.5000 Y-39.6205
G01 X117.4628 Y-39.6223
G01 X117.4260 Y-39.6278
G01 X117.3898 Y-39.6368
G01 X117.3548 Y-39.6494
G01 X117.3211 Y-39.6653
G01 X117.2892 Y-39.6845
G01 X117.2593 Y-39.7066
G01 X117.2317 Y-39.7317
G01 X117.2066 Y-39.7593
G01 X117.1845 Y-39.7892
G01 X117.1653 Y-39.8211
G01 X117.1494 Y-39.8548
G01 X117.1368 Y-39.8898
G01 X117.1278 Y-39.9260
G01 X117.1223 Y-39.9628
G01 X117.1205 Y-40.0000
G01 X117.1223 Y-40.0372
G01 X116.9629 Y-40.0529
G01 X116.9707 Y-40.1053
G01 X116.9836 Y-40.1567
G01 X117.0014 Y-40.2065
G01 X117.0240 Y-40.2544
G01 X117.0513 Y-40.2998
G01 X117.0828 Y-40.3424
G01 X117.1184 Y-40.3816
G01 X117.1576 Y-40.4172
G01 X117.2002 Y-40.4487
G01 X117.2456 Y-40.4760
G01 X117.2935 Y-40.4986
G01 X117.3433 Y-40.5164
G01 X117.3947 Y-40.5293
G01 X117.4471 Y-40.5371
G01 X117.5000 Y-40.5397
G01 X117.5529 Y-40.5371
G01 X117.6053 Y-40.5293
G01 X117.6567 Y-40.5164
G01 X117.7065 Y-40.4986
G01 X117.7544 Y-40.4760
G01 X117.7998 Y-40.4487
G01 X117.8424 Y-40.4172
G01 X117.8816 Y-40.3816
G01 X117.9172 Y-40.3424
G01 X117.9487 Y-40.2998
G01 X117.9760 Y-40.2544
G01 X117.9986 Y-40.2065
G01 X118.0164 Y-40.1567
G01 X118.0293 Y-40.1053
G01 X118.0371 Y-40.0529
G01 X118.0397 Y-40.0000
G01 X118.0371 Y-39.9471
G01 X118.0293 Y-39.8947
G01 X118.0164 Y-39.8433
G01 X117.9986 Y-39.7935
G01 X117.9760 Y-39.7456
G01 X117.9487 Y-39.7002
G01 X117.9172 Y-39.6576
G01 X117.8816 Y-39.6184
G01 X117.8424 Y-39.5828
G01 X117.7998 Y-39.5513
G01 X117.7544 Y-39.5240
G01 X117.7065 Y-39.5014
G01 X117.6567 Y-39.4836
G01 X117.6053 Y-39.4707
G01 X117.5529 Y-39.4629
G01 X117.5000 Y-39.4603
G01 X117.4471 Y-39.4629
G01 X117.3947 Y-39.4707
G01 X117.3433 Y-39.4836
G01 X117.2935 Y-39.5014
G01 X117.2456 Y-39.5240
G01 X117.2002 Y-39.5513
G01 X117.1576 Y-39.5828
G01 X117.1184 Y-39.6184
G01 X117.0828 Y-39.6576
G01 X117.0513 Y-39.7002
G01 X117.0240 Y-39.7456
G01 X117.0014 Y-39.7935
G01 X116.9836 Y-39.8433
G01 X116.9707 Y-39.8947
G01 X116.9629 Y-39.9471
G01 X116.9603 Y-40.0000
G01 X116.9629 Y-40.0529
G01 X116.8035 Y-40.0686
G01 X116.8136 Y-40.1365
G01 X116.8303 Y-40.2032
G01 X116.8534 Y-40.2678
G01 X116.8828 Y-40.3299
G01 X116.9181 Y-40.3888
G01 X116.9590 Y-40.4440
G01 X117.0051 Y-40.4949
G01 X117.0560 Y-40.5410
G01 X117.1112 Y-40.5819
G01 X117.1701 Y-40.6172
G01 X117.2322 Y-40.6466
G01 X117.2968 Y-40.6697
G01 X117.3635 Y-40.6864
G01 X117.4314 Y-40.6965
G01 X117.5000 Y-40.6999
G01 X117.5686 Y-40.6965
G01 X117.6365 Y-40.6864
G01 X117.7032 Y-40.6697
G01 X117.7678 Y-40.6466
G01 X117.8299 Y-40.6172
G01 X117.8888 Y-40.5819
G01 X117.9440 Y-40.5410
G01 X117.9949 Y-40.4949
G01 X118.0410 Y-40.4440
G01 X118.0819 Y-40.3888
G01 X118.1172 Y-40.3299
G01 X118.1466 Y-40.2678
G01 X118.1697 Y-40.2032
G01 X118.1864 Y-40.1365
G01 X118.1965 Y-40.0686
G01 X118.1999 Y-40.0000
G01 X118.1965 Y-39.9314
G01 X118.1864 Y-39.8635
G01 X118.1697 Y-39.7968
G01 X118.1466 Y-39.7322
G01 X118.1172 Y-39.6701
G01 X118.0819 Y-39.6112
G01 X118.0410 Y-39.5560
G01 X117.9949 Y-39.5051
G01 X117.9440 Y-39.4590
G01 X117.8888 Y-39.4181
G01 X117.8299 Y-39.3828
G01 X117.7678 Y-39.3534
G01 X117.7032 Y-39.3303
G01 X117.6365 Y-39.3136
G01 X117.5686 Y-39.3035
G01 X117.5000 Y-39.3001
G01 X117.4314 Y-39.3035
G01 X117.3635 Y-39.3136
G01 X117.2968 Y-39.3303
G01 X117.2322 Y-39.3534
G01 X117.1701 Y-39.3828
G01 X117.1112 Y-39.4181
G01 X117.0560 Y-39.4590
G01 X117.0051 Y-39.5051
G01 X116.9590 Y-39.5560
G01 X116.9181 Y-39.6112
G01 X116.8828 Y-39.6701
G01 X116.8534 Y-39.7322
G01 X116.8303 Y-39.7968
G01 X116.8136 Y-39.8635
G01 X116.8035 Y-39.9314
G01 X116.8001 Y-40.0000
G01 X116.8035 Y-40.0686
G00 Z1.0000
G00 X117.4412 Y-42.5458
G01 F30.00
G01 Z0.0000
G01 F100.00
G01 X117.4420 Y-42.5515
G01 X117.4434 Y-42.5572
G01 X117.4454 Y-42.5626
G01 X117.4479 Y-42.5679
G01 X117.4509 Y-42.5728
G01 X117.4543 Y-42.5775
G01 X117.4582 Y-42.5818
G01 X117.4625 Y-42.5857
G01 X117.4672 Y-42.5891
G01 X117.4721 Y-42.5921
G01 X117.4774 Y-42.5946
G01 X117.4828 Y-42.5966
G01 X117.4885 Y-42.5980
G01 X117.4942 Y-42.5988
G01 X117.5000 Y-42.5991
G01 X117.5058 Y-42.5988
G01 X117.5115 Y-42.5980
G01 X117.5172 Y-42.5966
G01 X117.5226 Y-42.5946
G01 X117.5279 Y-42.5921
G01 X117.5328 Y-42.5891
G01 X117.5375 Y-42.5857
G01 X117.5418 Y-42.5818
G01 X117.5457 Y-42.5775
G01 X117.5491 Y-42.5728
G01 X117.5521 Y-42.5679
G01 X117.5546 Y-42.5626
G01 X117.5566 Y-42.5572
G01 X117.5580 Y-42.5515
G01 X117.5588 Y-42.5458
G01 X117.5591 Y-42.5400
G01 X117.5588 Y-42.5342
G01 X117.5580 Y-42.5285
G01 X117.5566 Y-42.5228
G01 X117.5546 Y-42.5174
G01 X117.5521 Y-42.5121
G01 X117.5491 Y-42.5072
G01 X117.5457 Y-42.5025
G01 X117.5418 Y-42.4982
G01 X117.5375 Y-42.4943
G01 X117.5328 Y-42.4909
G01 X117.5279 Y-42.4879
G01 X117.5226 Y-42.4854
G01 X117.5172 Y-42.4834
G01 X117.5115 Y-42.4820
G01 X117.5058 Y-42.4812
G01 X117.5000 Y-42.4809
G01 X117.4942 Y-42.4812
G01 X117.4885 Y-42.4820
G01 X117.4828 Y-42.4834
G01 X117.4774 Y-42.4854
G01 X117.4721 Y-42.4879
G01 X117.4672 Y-42.4909
G01 X117.4625 Y-42.4943
G01 X117.4582 Y-42.4982
G01 X117.4543 Y-42.5025
G01 X117.4509 Y-42.5072
G01 X117.4479 Y-42.5121
G01 X117.4454 Y-42.5174
G01 X117.4434 Y-42.5228
G01 X117.4420 Y-42.5285
G01 X117.4412 Y-42.5342
G01 X117.4409 Y-42.5400
G01 X117.4412 Y-42.5458
G01 X117.2818 Y-42.5615
G01 X117.2849 Y-42.5828
G01 X117.2901 Y-42.6037
G01 X117.2974 Y-42.6239
G01 X117.3066 Y-42.6434
G01 X117.3177 Y-42.6618
G01 X117.3305 Y-42.6791
G01 X117.3449 Y-42.6951
G01 X117.3609 Y-42.7095
G01 X117.3782 Y-42.7223
G01 X117.3966 Y-42.7334
G01 X117.4161 Y-42.7426
G01 X117.4363 Y-42.7499
G01 X117.4572 Y-42.7551
G01 X117.4785 Y-42.7582
G01 X117.5000 Y-42.7593
G01 X117.5215 Y-42.7582
G01 X117.5428 Y-42.7551
G01 X117.5637 Y-42.7499
G01 X117.5839 Y-42.7426
G01 X117.6034 Y-42.7334
G01 X117.6218 Y-42.7223
G01 X117.6391 Y-42.7095
G01 X117.6551 Y-42.6951
G01 X117.6695 Y-42.6791
G01 X117.6823 Y-42.6618
G01 X117.6934 Y-42.6434
G01 X117.7026 Y-42.6239
G01 X117.7099 Y-42.6037
G01 X117.7151 Y-42.5828
G01 X117.7182 Y-42.5615
G01 X117.7193 Y-42.5400
G01 X117.7182 Y-42.5185
G01 X117.7151 Y-42.4972
G01 X117.7099 Y-42.4763
G01 X117.7026 Y-42.4561
G01 X117.6934 Y-42.4366
G01 X117.6823 Y-42.4182
G01 X117.6695 Y-42.4009
G01 X117.6551 Y-42.3849
G01 X117.6391 Y-42.3705
G01 X117.6218 Y-42.3577
G01 X117.6034 Y-42.3466
G01 X117.5839 Y-42.3374
G01 X117.5637 Y-42.3301
G01 X117.5428 Y-42.3249
G01 X117.5215 Y-42.3218
G01 X117.5000 Y-42.3207
G01 X117.4785 Y-42.3218
G01 X117.4572 Y-42.3249
G01 X117.4363 Y-42.3301
G01 X117.4161 Y-42.3374
G01 X117.3966 Y-42.3466
G01 X117.3782 Y-42.3577
G01 X117.3609 Y-42.3705
G01 X117.3449 Y-42.3849
G01 X117.3305 Y-42.4009
G01 X117.3177 Y-42.4182
G01 X117.3066 Y-42.4366
G01 X117.2974 Y-42.4561
G01 X117.2901 Y-42.4763
G01 X117.2849 Y-42.4972
G01 X117.2818 Y-42.5185
G01 X117.2807 Y-42.5400
G01 X117.2818 Y-42.5615
G01 X117.1223 Y-42.5772
G01 X117.1278 Y-42.6140
G01 X117.1368 Y-42.6502
G01 X117.1494 Y-42.6852
G01 X117.1653 Y-42.7189
G01 X117.1845 Y-42.7508
G01 X117.2066 Y-42.7807
G01 X117.2317 Y-42.8083
G01 X117.2593 Y-42.8334
G01 X117.2892 Y-42.8555
G01 X117.3211 Y-42.8747
G01 X117.3548 Y-42.8906
G01 X117.3898 Y-42.9032
G01 X117.4260 Y-42.9122
G01 X117.4628 Y-42.9177
G01 X117.5000 Y-42.9195
G01 X117.5372 Y-42.9177
G01 X117.5740 Y-42.9122
G01 X117.6102 Y-42.9032
G01 X117.6452 Y-42.8906
G01 X117.6789 Y-42.8747
G01 X117.7108 Y-42.8555
G01 X117.7407 Y-42.8334
G01 X117.7683 Y-42.8083
G01 X117.7934 Y-42.7807
G01 X117.8155 Y-42.7508
G01 X117.8347 Y-42.7189
G01 X117.8506 Y-42.6852
G01 X117.8632 Y-42.6502
G01 X117.8722 Y-42.6140
G01 X117.8777 Y-42.5772
G01 X117.8795 Y-42.5400
G01 X117.8777 Y-42.5028
G01 X117.8722 Y-42.4660
G01 X117.8632 Y-42.4298
G01 X117.8506 Y-42.3948
G01 X117.8347 Y-42.3611
G01 X117.8155 Y-42.3292
G01 X117.7934 Y-42.2993
G01 X117.7683 Y-42.2717
G01 X117.7407 Y-42.2466
G01 X117.7108 Y-42.2245
G01 X117.6789 Y-42.2053
G01 X117.6452 Y-42.1894
G01 X117.6102 Y-42.1768
G01 X117.5740 Y-42.1678
G01 X117.5372 Y-42.1623
G01 X117.5000 Y-42.1605
G01 X117.4628 Y-42.1623
G01 X117.4260 Y-42.1678
G01 X117.3898 Y-42.1768
G01 X117.3548 Y-42.1894
G01 X117.3211 Y-42.2053
G01 X117.2892 Y-42.2245
G01 X117.2593 Y-42.2466
G01 X117.2317 Y-42.2717
G01 X117.2066 Y-42.2993
G01 X117.1845 Y-42.3292
G01 X117.1653 Y-42.3611
G01 X117.1494 Y-42.3948
G01 X117.1368 Y-42.4298
G01 X117.1278 Y-42.4660
G01 X117.1223 Y-42.5028
G01 X117.1205 Y-42.5400
G01 X117.1223 Y-42.5772
G01 X116.9629 Y-42.5929
G01 X116.9707 Y-42.6453
G01 X116.9836 Y-42.6967
G01 X117.0014 Y-42.7465
G01 X117.0240 Y-42.7944
G01 X117.0513 Y-42.8398
G01 X117.0828 Y-42.8824
G01 X117.1184 Y-42.9216
G01 X117.1576 Y-42.9572
G01 X117.2002 Y-42.9887
G01 X117.2456 Y-43.0160
G01 X117.2935 Y-43.0386
G01 X117.3433 Y-43.0564
G01 X117.3947 Y-43.0693
G01 X117.4471 Y-43.0771
G01 X117.5000 Y-43.0797
G01 X117.5529 Y-43.0771
G01 X117.6053 Y-43.0693
G01 X117.6567 Y-43.0564
G01 X117.7065 Y-43.0386
G01 X117.7544 Y-43.0160
G01 X117.7998 Y-42.9887
G01 X117.8424 Y-42.9572
G01 X117.8816 Y-42.9216
G01 X117.9172 Y-42.8824
G01 X117.9487 Y-42.8398
G01 X117.9760 Y-42.7944
G01 X117.9986 Y-42.7465
G01 X118.0164 Y-42.6967
G01 X118.0293 Y-42.6453
G01 X118.0371 Y-42.5929
G01 X118.0397 Y-42.5400
G01 X118.0371 Y-42.4871
G01 X118.0293 Y-42.4347
G01 X118.0164 Y-42.3833
G01 X117.9986 Y-42.3335
G01 X117.9760 Y-42.2856
G01 X117.9487 Y-42.2402
G01 X117.9172 Y-42.1976
G01 X117.8816 Y-42.1584
G01 X117.8424 Y-42.1228
G01 X117.7998 Y-42.0913
G01 X117.7544 Y-42.0640
G01 X117.7065 Y-42.0414
G01 X117.6567 Y-42.0236
G01 X117.6053 Y-42.0107
G01 X117.5529 Y-42.0029
G01 X117.5000 Y-42.0003
G01 X117.4471 Y-42.0029
G01 X117.3947 Y-42.0107
G01 X117.3433 Y-42.0236
G01 X117.2935 Y-42.0414
G01 X117.2456 Y-42.0640
G01 X117.2002 Y-42.0913
G01 X117.1576 Y-42.1228
G01 X117.1184 Y-42.1584
G01 X117.0828 Y-42.1976
G01 X117.0513 Y-42.2402
G01 X117.0240 Y-42.2856
G01 X117.0014 Y-42.3335
G01 X116.9836 Y-42.3833
G01 X116.9707 Y-42.4347
G01 X116.9629 Y-42.4871
G01 X116.9603 Y-42.5400
G01 X116.9629 Y-42.5929
G01 X116.8035 Y-42.6086
G01 X116.8136 Y-42.6765
G01 X116.8303 Y-42.7432
G01 X116.8534 Y-42.8078
G01 X116.8828 Y-42.8699
G01 X116.9181 Y-42.9288
G01 X116.9590 Y-42.9840
G01 X117.0051 Y-43.0349
G01 X117.0560 Y-43.0810
G01 X117.1112 Y-43.1219
G01 X117.1701 Y-43.1572
G01 X117.2322 Y-43.1866
G01 X117.2968 Y-43.2097
G01 X117.3635 Y-43.2264
G01 X117.4314 Y-43.2365
G01 X117.5000 Y-43.2399
G01 X117.5686 Y-43.2365
G01 X117.6365 Y-43.2264
G01 X117.7032 Y-43.2097
G01 X117.7678 Y-43.1866
G01 X117.8299 Y-43.1572
G01 X117.8888 Y-43.1219
G01 X117.9440 Y-43.0810
G01 X117.9949 Y-43.0349
G01 X118.0410 Y-42.9840
G01 X118.0819 Y-42.9288
G01 X118.1172 Y-42.8699
G01 X118.1466 Y-42.8078
G01 X118.1697 Y-42.7432
G01 X118.1864 Y-42.6765
G01 X118.1965 Y-42.6086
G01 X118.1999 Y-42.5400
G01 X118.1965 Y-42.4714
G01 X118.1864 Y-42.4035
G01 X118.1697 Y-42.3368
G01 X118.1466 Y-42.2722
G01 X118.1172 Y-42.2101
G01 X118.0819 Y-42.1512
G01 X118.0410 Y-42.0960
G01 X117.9949 Y-42.0451
G01 X117.9440 Y-41.9990
G01 X117.8888 Y-41.9581
G01 X117.8299 Y-41.9228
G01 X117.7678 Y-41.8934
G01 X117.7032 Y-41.8703
G01 X117.6365 Y-41.8536
G01 X117.5686 Y-41.8435
G01 X117.5000 Y-41.8401
G01 X117.4314 Y-41.8435
G01 X117.3635 Y-41.8536
G01 X117.2968 Y-41.8703
G01 X117.2322 Y-41.8934
G01 X117.1701 Y-41.9228
G01 X117.1112 Y-41.9581
G01 X117.0560 Y-41.9990
G01 X117.0051 Y-42.0451
G01 X116.9590 Y-42.0960
G01 X116.9181 Y-42.1512
G01 X116.8828 Y-42.2101
G01 X116.8534 Y-42.2722
G01 X116.8303 Y-42.3368
G01 X116.8136 Y-42.4035
G01 X116.8035 Y-42.4714
G01 X116.8001 Y-42.5400
G01 X116.8035 Y-42.6086
G00 Z1.0000
G00 X117.4412 Y-45.0858
G01 F30.00
G01 Z0.0000
G01 F100.00
G01 X117.4420 Y-45.0915
G01 X117.4434 Y-45.0972
G01 X117.4454 Y-45.1026
G01 X117.4479 Y-45.1079
G01 X117.4509 Y-45.1128
G01 X117.4543 Y-45.1175
G01 X117.4582 Y-45.1218
G01 X117.4625 Y-45.1257
G01 X117.4672 Y-45.1291
G01 X117.4893 Y-45.1420
G01 X117.5107 Y-45.1382
G01 X117.5172 Y-45.1366
G01 X117.5226 Y-45.1346
G01 X117.5279 Y-45.1321
G01 X117.5328 Y-45.1291
G01 X117.5375 Y-45.1257
G01 X117.5418 Y-45.1218
G01 X117.5457 Y-45.1175
G01 X117.5491 Y-45.1128
G01 X117.5521 Y-45.1079
G01 X117.5546 Y-45.1026
G01 X117.5566 Y-45.0972
G01 X117.5580 Y-45.0915
G01 X117.5588 Y-45.0858
G01 X117.5591 Y-45.0800
G01 X117.5588 Y-45.0742
G01 X117.5580 Y-45.0685
G01 X117.5566 Y-45.0628
G01 X117.5546 Y-45.0574
G01 X117.5521 Y-45.0521
G01 X117.5491 Y-45.0472
G01 X117.5457 Y-45.0425
G01 X117.5418 Y-45.0382
G01 X117.5375 Y-45.0343
G01 X117.5328 Y-45.0309
G01 X117.5279 Y-45.0279
G01 X117.5226 Y-45.0254
G01 X117.5172 Y-45.0234
G01 X117.5115 Y-45.0220
G01 X117.5058 Y-45.0212
G01 X117.5000 Y-45.0209
G01 X117.4942 Y-45.0212
G01 X117.4885 Y-45.0220
G01 X117.4828 Y-45.0234
G01 X117.4774 Y-45.0254
G01 X117.4721 Y-45.0279
G01 X117.4672 Y-45.0309
G01 X117.4625 Y-45.0343
G01 X117.4582 Y-45.0382
G01 X117.4543 Y-45.0425
G01 X117.4509 Y-45.0472
G01 X117.4479 Y-45.0521
G01 X117.4454 Y-45.0574
G01 X117.4434 Y-45.0628
G01 X117.4420 Y-45.0685
G01 X117.4412 Y-45.0742
G01 X117.4409 Y-45.0800
G01 X117.4412 Y-45.0858
G01 X117.2818 Y-45.1015
G01 X117.2849 Y-45.1228
G01 X117.2901 Y-45.1437
G01 X117.2974 Y-45.1639
G01 X117.3066 Y-45.1834
G01 X117.3177 Y-45.2018
G01 X117.3305 Y-45.2191
G01 X117.3449 Y-45.2351
G01 X117.3609 Y-45.2495
G01 X117.3782 Y-45.2623
G01 X117.4024 Y-45.2769
G01 X117.4309 Y-45.2931
G01 X117.4468 Y-45.3031
G01 X117.4620 Y-45.3134
G01 X117.4805 Y-45.3081
G01 X117.4989 Y-45.3035
G01 X117.5207 Y-45.2989
G01 X117.5427 Y-45.2951
G01 X117.5637 Y-45.2899
G01 X117.5839 Y-45.2826
G01 X117.6034 Y-45.2734
G01 X117.6218 Y-45.2623
G01 X117.6391 Y-45.2495
G01 X117.6551 Y-45.2351
G01 X117.6695 Y-45.2191
G01 X117.6823 Y-45.2018
G01 X117.6934 Y-45.1834
G01 X117.7026 Y-45.1639
G01 X117.7099 Y-45.1437
G01 X117.7151 Y-45.1228
G01 X117.7182 Y-45.1015
G01 X117.7193 Y-45.0800
G01 X117.7182 Y-45.0585
G01 X117.7151 Y-45.0372
G01 X117.7099 Y-45.0163
G01 X117.7026 Y-44.9961
G01 X117.6934 Y-44.9766
G01 X117.6823 Y-44.9582
G01 X117.6695 Y-44.9409
G01 X117.6551 Y-44.9249
G01 X117.6391 Y-44.9105
G01 X117.6218 Y-44.8977
G01 X117.6034 Y-44.8866
G01 X117.5839 Y-44.8774
G01 X117.5637 Y-44.8701
G01 X117.5428 Y-44.8649
G01 X117.5215 Y-44.8618
G01 X117.5000 Y-44.8607
G01 X117.4785 Y-44.8618
G01 X117.4572 Y-44.8649
G01 X117.4363 Y-44.8701
G01 X117.4161 Y-44.8774
G01 X117.3966 Y-44.8866
G01 X117.3782 Y-44.8977
G01 X117.3609 Y-44.9105
G01 X117.3449 Y-44.9249
G01 X117.3305 Y-44.9409
G01 X117.3177 Y-44.9582
G01 X117.3066 Y-44.9766
G01 X117.2974 Y-44.9961
G01 X117.2901 Y-45.0163
G01 X117.2849 Y-45.0372
G01 X117.2818 Y-45.0585
G01 X117.2807 Y-45.0800
G01 X117.2818 Y-45.1015
G01 X117.1223 Y-45.1172
G01 X117.1278 Y-45.1540
G01 X117.1368 Y-45.1902
G01 X117.1494 Y-45.2252
G01 X117.1653 Y-45.2589
G01 X117.1845 Y-45.2908
G01 X117.2066 Y-45.3207
G01 X117.2317 Y-45.3483
G01 X117.2593 Y-45.3734
G01 X117.2892 Y-45.3955
G01 X117.3239 Y-45.4163
G01 X117.3475 Y-45.4297
G01 X117.3595 Y-45.4372
G01 X117.3742 Y-45.4473
G01 X117.3900 Y-45.4591
G01 X117.4053 Y-45.4717
G01 X117.4199 Y-45.4850
G01 X117.4327 Y-45.4978
G01 X117.4487 Y-45.4897
G01 X117.4669 Y-45.4815
G01 X117.4854 Y-45.4742
G01 X117.5043 Y-45.4678
G01 X117.5216 Y-45.4627
G01 X117.5354 Y-45.4593
G01 X117.5549 Y-45.4553
G01 X117.5740 Y-45.4522
G01 X117.6102 Y-45.4432
G01 X117.6452 Y-45.4306
G01 X117.6789 Y-45.4147
G01 X117.7108 Y-45.3955
G01 X117.7407 Y-45.3734
G01 X117.7683 Y-45.3483
G01 X117.7934 Y-45.3207
G01 X117.8155 Y-45.2908
G01 X117.8347 Y-45.2589
G01 X117.8506 Y-45.2252
G01 X117.8632 Y-45.1902
G01 X117.8722 Y-45.1540
G01 X117.8777 Y-45.1172
G01 X117.8795 Y-45.0800
G01 X117.8777 Y-45.0428
G01 X117.8722 Y-45.0060
G01 X117.8632 Y-44.9698
G01 X117.8506 Y-44.9348
G01 X117.8347 Y-44.9011
G01 X117.8155 Y-44.8692
G01 X117.7934 Y-44.8393
G01 X117.7683 Y-44.8117
G01 X117.7407 Y-44.7866
G01 X117.7108 Y-44.7645
G01 X117.6789 Y-44.7453
G01 X117.6452 Y-44.7294
G01 X117.6102 Y-44.7168
G01 X117.5740 Y-44.7078
G01 X117.5372 Y-44.7023
G01 X117.5000 Y-44.7005
G01 X117.4628 Y-44.7023
G01 X117.4260 Y-44.7078
G01 X117.3898 Y-44.7168
G01 X117.3548 Y-44.7294
G01 X117.3211 Y-44.7453
G01 X117.2892 Y-44.7645
G01 X117.2593 Y-44.7866
G01 X117.2317 Y-44.8117
G01 X117.2066 Y-44.8393
G01 X117.1845 Y-44.8692
G01 X117.1653 Y-44.9011
G01 X117.1494 Y-44.9348
G01 X117.1368 Y-44.9698
G01 X117.1278 Y-45.0060
G01 X117.1223 Y-45.0428
G01 X117.1205 Y-45.0800
G01 X117.1223 Y-45.1172
G01 X116.9629 Y-45.1329
G01 X116.9707 Y-45.1853
G01 X116.9836 Y-45.2367
G01 X117.0014 Y-45.2865
G01 X117.0240 Y-45.3344
G01 X117.0513 Y-45.3798
G01 X117.0828 Y-45.4224
G01 X117.1184 Y-45.4616
G01 X117.1576 Y-45.4972
G01 X117.2002 Y-45.5287
G01 X117.2463 Y-45.5564
G01 X117.2642 Y-45.5663
G01 X117.2815 Y-45.5777
G01 X117.2942 Y-45.5874
G01 X117.3052 Y-45.5969
G01 X117.3167 Y-45.6080
G01 X117.3266 Y-45.6188
G01 X117.3381 Y-45.6331
G01 X117.3505 Y-45.6513
G01 X117.3608 Y-45.6693
G01 X117.3701 Y-45.6894
G01 X117.3772 Y-45.7088
G01 X117.3831 Y-45.7301
G01 X117.3870 Y-45.7504
G01 X117.3892 Y-45.7707
G01 X117.3969 Y-45.7535
G01 X117.4069 Y-45.7352
G01 X117.4192 Y-45.7165
G01 X117.4320 Y-45.7001
G01 X117.4445 Y-45.6864
G01 X117.4608 Y-45.6712
G01 X117.4771 Y-45.6583
G01 X117.4957 Y-45.6459
G01 X117.5085 Y-45.6387
G01 X117.5230 Y-45.6316
G01 X117.5366 Y-45.6259
G01 X117.5518 Y-45.6206
G01 X117.5636 Y-45.6171
G01 X117.5756 Y-45.6143
G01 X117.5878 Y-45.6120
G01 X117.6053 Y-45.6093
G01 X117.6567 Y-45.5964
G01 X117.7065 Y-45.5786
G01 X117.7544 Y-45.5560
G01 X117.7998 Y-45.5287
G01 X117.8424 Y-45.4972
G01 X117.8816 Y-45.4616
G01 X117.9172 Y-45.4224
G01 X117.9487 Y-45.3798
G01 X117.9760 Y-45.3344
G01 X117.9986 Y-45.2865
G01 X118.0164 Y-45.2367
G01 X118.0293 Y-45.1853
G01 X118.0371 Y-45.1329
G01 X118.0397 Y-45.0800
G01 X118.0371 Y-45.0271
G01 X118.0293 Y-44.9747
G01 X118.0164 Y-44.9233
G01 X117.9986 Y-44.8735
G01 X117.9760 Y-44.8256
G01 X117.9487 Y-44.7802
G01 X117.9172 Y-44.7376
G01 X117.8816 Y-44.6984
G01 X117.8424 Y-44.6628
G01 X117.7998 Y-44.6313
G01 X117.7544 Y-44.6040
G01 X117.7065 Y-44.5814
G01 X117.6567 Y-44.5636
G01 X117.6053 Y-44.5507
G01 X117.5529 Y-44.5429
G01 X117.5000 Y-44.5403
G01 X117.4471 Y-44.5429
G01 X117.3947 Y-44.5507
G01 X117.3433 Y-44.5636
G01 X117.2935 Y-44.5814
G01 X117.2456 Y-44.6040
G01 X117.2002 Y-44.6313
G01 X117.1576 Y-44.6628
G01 X117.1184 Y-44.6984
G01 X117.0828 Y-44.7376
G01 X117.0513 Y-44.7802
G01 X117.0240 Y-44.8256
G01 X117.0014 Y-44.8735
G01 X116.9836 Y-44.9233
G01 X116.9707 Y-44.9747
G01 X116.9629 Y-45.0271
G01 X116.9603 Y-45.0800
G01 X116.9629 Y-45.1329
G01 X116.8035 Y-45.1486
G01 X116.8136 Y-45.2165
G01 X116.8303 Y-45.2832
G01 X116.8534 Y-45.3478
G01 X116.8828 Y-45.4099
G01 X116.9181 Y-45.4688
G01 X116.9590 Y-45.5240
G01 X117.0051 Y-45.5749
G01 X117.0560 Y-45.6210
G01 X117.1112 Y-45.6619
G01 X117.1701 Y-45.6972
G01 X117.1829 Y-45.7041
G01 X117.1925 Y-45.7109
G01 X117.2012 Y-45.7188
G01 X117.2075 Y-45.7258
G01 X117.2118 Y-45.7314
G01 X117.2156 Y-45.7373
G01 X117.2201 Y-45.7456
G01 X117.2237 Y-45.7543
G01 X117.2265 Y-45.7633
G01 X117.2281 Y-45.7701
G01 X117.2294 Y-45.7794
G01 X117.2299 Y-45.7888
G01 X117.2299 Y-50.0375
G01 X117.2307 Y-50.0547
G01 X117.2329 Y-50.0693
G01 X117.2365 Y-50.0835
G01 X117.2414 Y-50.0974
G01 X117.2477 Y-50.1107
G01 X117.2553 Y-50.1233
G01 X117.2640 Y-50.1352
G01 X117.2756 Y-50.1479
G01 X118.8206 Y-51.6929
G01 X118.8272 Y-51.7002
G01 X118.8316 Y-51.7060
G01 X118.8356 Y-51.7122
G01 X118.8403 Y-51.7209
G01 X118.8440 Y-51.7299
G01 X118.8463 Y-51.7369
G01 X118.8484 Y-51.7465
G01 X118.8494 Y-51.7538
G01 X118.8499 Y-51.7636
G01 X118.8499 Y-52.7809
G01 X118.8492 Y-52.7926
G01 X118.8481 Y-52.7996
G01 X118.8465 Y-52.8065
G01 X118.8437 Y-52.8155
G01 X118.8400 Y-52.8242
G01 X118.8367 Y-52.8305
G01 X118.8316 Y-52.8384
G01 X118.8258 Y-52.8459
G01 X118.8194 Y-52.8528
G01 X118.8123 Y-52.8590
G01 X118.8046 Y-52.8645
G01 X118.7965 Y-52.8693
G01 X118.7880 Y-52.8733
G01 X118.7322 Y-52.8934
G01 X118.6701 Y-52.9228
G01 X118.6112 Y-52.9581
G01 X118.5560 Y-52.9990
G01 X118.5051 Y-53.0451
G01 X118.4590 Y-53.0960
G01 X118.4181 Y-53.1512
G01 X118.3828 Y-53.2101
G01 X118.3534 Y-53.2722
G01 X118.3303 Y-53.3368
G01 X118.3136 Y-53.4035
G01 X118.3035 Y-53.4714
G01 X118.3001 Y-53.5400
G01 X118.3035 Y-53.6086
G01 X118.3136 Y-53.6765
G01 X118.3303 Y-53.7432
G01 X118.3534 Y-53.8078
G01 X118.3828 Y-53.8699
G01 X118.4181 Y-53.9288
G01 X118.4590 Y-53.9840
G01 X118.5051 Y-54.0349
G01 X118.5560 Y-54.0810
G01 X118.6112 Y-54.1219
G01 X118.6701 Y-54.1572
G01 X118.7322 Y-54.1866
G01 X118.7968 Y-54.2097
G01 X118.8635 Y-54.2264
G01 X118.9314 Y-54.2365
G01 X119.0000 Y-54.2399
G01 X119.0686 Y-54.2365
G01 X119.1365 Y-54.2264
G01 X119.2032 Y-54.2097
G01 X119.2678 Y-54.1866
G01 X119.3172 Y-54.1633
G01 X119.3242 Y-54.1603
G01 X119.3340 Y-54.1571
G01 X119.3439 Y-54.1550
G01 X119.3541 Y-54.1538
G01 X119.3643 Y-54.1538
G01 X119.3745 Y-54.1547
G01 X119.3845 Y-54.1567
G01 X119.3943 Y-54.1598
G01 X119.4037 Y-54.1638
G01 X119.4127 Y-54.1687
G01 X119.4211 Y-54.1745
G01 X119.4306 Y-54.1830
G01 X121.0706 Y-55.8229
G01 X121.0772 Y-55.8302
G01 X121.0816 Y-55.8360
G01 X121.0856 Y-55.8422
G01 X121.0892 Y-55.8486
G01 X121.0932 Y-55.8576
G01 X121.0956 Y-55.8646
G01 X121.0974 Y-55.8717
G01 X121.0988 Y-55.8789
G01 X121.0996 Y-55.8862
G01 X121.0999 Y-55.8936
G01 X121.0999 Y-69.7475
G01 X121.1007 Y-69.7647
G01 X121.1029 Y-69.7793
G01 X121.1065 Y-69.7935
G01 X121.1114 Y-69.8074
G01 X121.1177 Y-69.8207
G01 X121.1253 Y-69.8333
G01 X121.1340 Y-69.8452
G01 X121.1456 Y-69.8579
G01 X121.8921 Y-70.6044
G01 X121.9048 Y-70.6160
G01 X121.9167 Y-70.6247
G01 X121.9293 Y-70.6323
G01 X121.9426 Y-70.6386
G01 X121.9565 Y-70.6435
G01 X121.9707 Y-70.6471
G01 X121.9853 Y-70.6493
G01 X122.0025 Y-70.6501
G01 X122.7409 Y-70.6501
G01 X122.7503 Y-70.6506
G01 X122.7596 Y-70.6519
G01 X122.7688 Y-70.6541
G01 X122.7777 Y-70.6572
G01 X122.7863 Y-70.6611
G01 X122.7925 Y-70.6645
G01 X122.8003 Y-70.6697
G01 X122.8059 Y-70.6742
G01 X122.8111 Y-70.6789
G01 X122.8160 Y-70.6841
G01 X122.8218 Y-70.6915
G01 X122.8258 Y-70.6973
G01 X122.8304 Y-70.7056
G01 X122.8342 Y-70.7142
G01 X122.8534 Y-70.7678
G01 X122.8828 Y-70.8299
G01 X122.9181 Y-70.8888
G01 X122.9590 Y-70.9440
G01 X123.0051 Y-70.9949
G01 X123.0560 Y-71.0410
G01 X123.1112 Y-71.0819
G01 X123.1701 Y-71.1172
G01 X123.2322 Y-71.1466
G01 X123.2968 Y-71.1697
G01 X123.3635 Y-71.1864
G01 X123.4314 Y-71.1965
G01 X123.5000 Y-71.1999
G01 X123.5686 Y-71.1965
G01 X123.6365 Y-71.1864
G01 X123.7032 Y-71.1697
G01 X123.7678 Y-71.1466
G01 X123.8299 Y-71.1172
G01 X123.8888 Y-71.0819
G01 X123.9440 Y-71.0410
G01 X123.9949 Y-70.9949
G01 X124.0410 Y-70.9440
G01 X124.0819 Y-70.8888
G01 X124.1172 Y-70.8299
G01 X124.1466 Y-70.7678
G01 X124.1667 Y-70.7120
G01 X124.1707 Y-70.7035
G01 X124.1755 Y-70.6954
G01 X124.1810 Y-70.6877
G01 X124.1872 Y-70.6806
G01 X124.1941 Y-70.6742
G01 X124.2016 Y-70.6684
G01 X124.2095 Y-70.6633
G01 X124.2179 Y-70.6590
G01 X124.2267 Y-70.6555
G01 X124.2358 Y-70.6529
G01 X124.2474 Y-70.6508
G01 X124.2591 Y-70.6501
G01 X125.3964 Y-70.6501
G01 X125.4086 Y-70.6509
G01 X125.4159 Y-70.6520
G01 X125.4231 Y-70.6537
G01 X125.4301 Y-70.6560
G01 X125.4369 Y-70.6587
G01 X125.4435 Y-70.6619
G01 X125.4499 Y-70.6656
G01 X125.4579 Y-70.6713
G01 X125.4671 Y-70.6794
G01 X131.0721 Y-76.2844
G01 X131.0848 Y-76.2960
G01 X131.0967 Y-76.3047
G01 X131.1093 Y-76.3123
G01 X131.1226 Y-76.3186
G01 X131.1365 Y-76.3235
G01 X131.1507 Y-76.3271
G01 X131.1653 Y-76.3293
G01 X131.1825 Y-76.3301
G01 X135.6309 Y-76.3301
G01 X135.6411 Y-76.3306
G01 X135.6512 Y-76.3322
G01 X135.6611 Y-76.3348
G01 X135.6730 Y-76.3394
G01 X135.6820 Y-76.3442
G01 X135.6905 Y-76.3499
G01 X135.6984 Y-76.3564
G01 X135.7056 Y-76.3637
G01 X135.7120 Y-76.3716
G01 X135.7175 Y-76.3802
G01 X135.7221 Y-76.3893
G01 X135.7250 Y-76.3964
G01 X135.7434 Y-76.4478
G01 X135.7728 Y-76.5099
G01 X135.8081 Y-76.5688
G01 X135.8490 Y-76.6240
G01 X135.8951 Y-76.6749
G01 X135.9460 Y-76.7210
G01 X136.0012 Y-76.7619
G01 X136.0601 Y-76.7972
G01 X136.1222 Y-76.8266
G01 X136.1868 Y-76.8497
G01 X136.2535 Y-76.8664
G01 X136.3214 Y-76.8765
G01 X136.3900 Y-76.8799
G01 X136.4586 Y-76.8765
G01 X136.5265 Y-76.8664
G01 X136.5932 Y-76.8497
G01 X136.6578 Y-76.8266
G01 X136.7199 Y-76.7972
G01 X136.7788 Y-76.7619
G01 X136.8340 Y-76.7210
G01 X136.8849 Y-76.6749
G01 X136.9310 Y-76.6240
G01 X136.9719 Y-76.5688
G01 X137.0072 Y-76.5099
G01 X137.0366 Y-76.4478
G01 X137.0597 Y-76.3832
G01 X137.0764 Y-76.3165
G01 X137.0865 Y-76.2486
G01 X137.0899 Y-76.1800
G01 X137.0865 Y-76.1114
G01 X137.0764 Y-76.0435
G01 X137.0597 Y-75.9768
G01 X137.0366 Y-75.9122
G01 X137.0072 Y-75.8501
G01 X136.9719 Y-75.7912
G01 X136.9310 Y-75.7360
G01 X136.8849 Y-75.6851
G01 X136.8340 Y-75.6390
G01 X136.7788 Y-75.5981
G01 X136.7199 Y-75.5628
G01 X136.6578 Y-75.5334
G01 X136.5932 Y-75.5103
G01 X136.5265 Y-75.4936
G01 X136.4586 Y-75.4835
G01 X136.3900 Y-75.4801
G01 X136.3214 Y-75.4835
G01 X136.2535 Y-75.4936
G01 X136.1868 Y-75.5103
G01 X136.1222 Y-75.5334
G01 X136.0601 Y-75.5628
G01 X136.0012 Y-75.5981
G01 X135.9460 Y-75.6390
G01 X135.8951 Y-75.6851
G01 X135.8490 Y-75.7360
G01 X135.8081 Y-75.7912
G01 X135.7728 Y-75.8501
G01 X135.7434 Y-75.9122
G01 X135.7250 Y-75.9636
G01 X135.7221 Y-75.9707
G01 X135.7175 Y-75.9798
G01 X135.7120 Y-75.9884
G01 X135.7056 Y-75.9963
G01 X135.6984 Y-76.0036
G01 X135.6905 Y-76.0101
G01 X135.6820 Y-76.0158
G01 X135.6730 Y-76.0206
G01 X135.6611 Y-76.0252
G01 X135.6512 Y-76.0278
G01 X135.6411 Y-76.0294
G01 X135.6309 Y-76.0299
G01 X131.2836 Y-76.0299
G01 X131.2738 Y-76.0294
G01 X131.2617 Y-76.0274
G01 X131.2522 Y-76.0248
G01 X131.2408 Y-76.0203
G01 X131.2322 Y-76.0156
G01 X131.2260 Y-76.0116
G01 X131.2202 Y-76.0072
G01 X131.2129 Y-76.0006
G01 X125.6079 Y-70.3956
G01 X125.5952 Y-70.3840
G01 X125.5833 Y-70.3753
G01 X125.5707 Y-70.3677
G01 X125.5574 Y-70.3614
G01 X125.5435 Y-70.3565
G01 X125.5293 Y-70.3529
G01 X125.5147 Y-70.3507
G01 X125.4975 Y-70.3499
G01 X124.2591 Y-70.3499
G01 X124.2474 Y-70.3492
G01 X124.2404 Y-70.3481
G01 X124.2335 Y-70.3465
G01 X124.2267 Y-70.3445
G01 X124.2179 Y-70.3410
G01 X124.2116 Y-70.3378
G01 X124.2035 Y-70.3330
G01 X124.1959 Y-70.3274
G01 X124.1906 Y-70.3227
G01 X124.1856 Y-70.3177
G01 X124.1796 Y-70.3104
G01 X124.1730 Y-70.3006
G01 X124.1676 Y-70.2901
G01 X124.1466 Y-70.2322
G01 X124.1172 Y-70.1701
G01 X124.0819 Y-70.1112
G01 X124.0410 Y-70.0560
G01 X123.9949 Y-70.0051
G01 X123.9440 Y-69.9590
G01 X123.8888 Y-69.9181
G01 X123.8299 Y-69.8828
G01 X123.7678 Y-69.8534
G01 X123.7032 Y-69.8303
G01 X123.6365 Y-69.8136
G01 X123.5686 Y-69.8035
G01 X123.5000 Y-69.8001
G01 X123.4314 Y-69.8035
G01 X123.3635 Y-69.8136
G01 X123.2968 Y-69.8303
G01 X123.2322 Y-69.8534
G01 X123.1701 Y-69.8828
G01 X123.1112 Y-69.9181
G01 X123.0560 Y-69.9590
G01 X123.0051 Y-70.0051
G01 X122.9590 Y-70.0560
G01 X122.9181 Y-70.1112
G01 X122.8828 Y-70.1701
G01 X122.8534 Y-70.2322
G01 X122.8342 Y-70.2858
G01 X122.8304 Y-70.2944
G01 X122.8258 Y-70.3027
G01 X122.8218 Y-70.3085
G01 X122.8160 Y-70.3159
G01 X122.8111 Y-70.3211
G01 X122.8059 Y-70.3258
G01 X122.8003 Y-70.3303
G01 X122.7925 Y-70.3355
G01 X122.7863 Y-70.3389
G01 X122.7777 Y-70.3428
G01 X122.7688 Y-70.3459
G01 X122.7596 Y-70.3481
G01 X122.7503 Y-70.3494
G01 X122.7409 Y-70.3499
G01 X122.1036 Y-70.3499
G01 X122.0938 Y-70.3494
G01 X122.0865 Y-70.3484
G01 X122.0793 Y-70.3469
G01 X122.0722 Y-70.3448
G01 X122.0631 Y-70.3413
G01 X122.0565 Y-70.3381
G01 X122.0501 Y-70.3344
G01 X122.0440 Y-70.3302
G01 X122.0383 Y-70.3256
G01 X122.0329 Y-70.3206
G01 X121.4277 Y-69.7153
G01 X121.4198 Y-69.7060
G01 X121.4131 Y-69.6957
G01 X121.4077 Y-69.6847
G01 X121.4037 Y-69.6731
G01 X121.4020 Y-69.6659
G01 X121.4009 Y-69.6586
G01 X121.4001 Y-69.6464
G01 X121.4001 Y-55.7925
G01 X121.3993 Y-55.7753
G01 X121.3971 Y-55.7607
G01 X121.3935 Y-55.7465
G01 X121.3886 Y-55.7326
G01 X121.3823 Y-55.7193
G01 X121.3747 Y-55.7067
G01 X121.3660 Y-55.6948
G01 X121.3544 Y-55.6821
G01 X119.6430 Y-53.9706
G01 X119.6377 Y-53.9650
G01 X119.6315 Y-53.9569
G01 X119.6274 Y-53.9505
G01 X119.6227 Y-53.9414
G01 X119.6189 Y-53.9319
G01 X119.6161 Y-53.9220
G01 X119.6144 Y-53.9120
G01 X119.6137 Y-53.9018
G01 X119.6138 Y-53.8941
G01 X119.6150 Y-53.8839
G01 X119.6171 Y-53.8740
G01 X119.6203 Y-53.8642
G01 X119.6233 Y-53.8572
G01 X119.6466 Y-53.8078
G01 X119.6697 Y-53.7432
G01 X119.6864 Y-53.6765
G01 X119.6965 Y-53.6086
G01 X119.6999 Y-53.5400
G01 X119.6965 Y-53.4714
G01 X119.6864 Y-53.4035
G01 X119.6697 Y-53.3368
G01 X119.6466 Y-53.2722
G01 X119.6233 Y-53.2228
G01 X119.6194 Y-53.2134
G01 X119.6171 Y-53.2060
G01 X119.6154 Y-53.1986
G01 X119.6140 Y-53.1884
G01 X119.6137 Y-53.1808
G01 X119.6141 Y-53.1706
G01 X119.6156 Y-53.1605
G01 X119.6181 Y-53.1505
G01 X119.6216 Y-53.1409
G01 X119.6261 Y-53.1318
G01 X119.6301 Y-53.1252
G01 X119.6361 Y-53.1169
G01 X119.6430 Y-53.1094
G01 X121.3544 Y-51.3979
G01 X121.3660 Y-51.3852
G01 X121.3747 Y-51.3733
G01 X121.3823 Y-51.3607
G01 X121.3886 Y-51.3474
G01 X121.3935 Y-51.3335
G01 X121.3971 Y-51.3193
G01 X121.3993 Y-51.3047
G01 X121.4001 Y-51.2875
G01 X121.4001 Y-20.8536
G01 X121.4006 Y-20.8438
G01 X121.4020 Y-20.8341
G01 X121.4044 Y-20.8246
G01 X121.4068 Y-20.8176
G01 X121.4108 Y-20.8086
G01 X121.4156 Y-20.8001
G01 X121.4213 Y-20.7921
G01 X121.4260 Y-20.7864
G01 X122.0347 Y-20.1777
G01 X122.0421 Y-20.1713
G01 X122.0480 Y-20.1670
G01 X122.0543 Y-20.1631
G01 X122.0631 Y-20.1587
G01 X122.0722 Y-20.1552
G01 X122.0793 Y-20.1531
G01 X122.0889 Y-20.1512
G01 X122.0987 Y-20.1502
G01 X134.7499 Y-20.1501
G01 X134.7621 Y-20.1509
G01 X134.7694 Y-20.1520
G01 X134.7765 Y-20.1537
G01 X134.7881 Y-20.1577
G01 X134.7992 Y-20.1631
G01 X134.8094 Y-20.1698
G01 X134.8152 Y-20.1744
G01 X134.8206 Y-20.1794
G01 X134.8287 Y-20.1886
G01 X134.8356 Y-20.1987
G01 X134.8392 Y-20.2052
G01 X134.8423 Y-20.2119
G01 X134.8463 Y-20.2235
G01 X134.8488 Y-20.2355
G01 X134.8496 Y-20.2428
G01 X134.8499 Y-20.2501
G01 X134.8499 Y-44.1175
G01 X134.8507 Y-44.1347
G01 X134.8529 Y-44.1493
G01 X134.8565 Y-44.1635
G01 X134.8614 Y-44.1774
G01 X134.8677 Y-44.1907
G01 X134.8753 Y-44.2033
G01 X134.8840 Y-44.2152
G01 X134.8956 Y-44.2279
G01 X139.7023 Y-49.0347
G01 X139.7072 Y-49.0402
G01 X139.7130 Y-49.0480
G01 X139.7181 Y-49.0565
G01 X139.7213 Y-49.0631
G01 X139.7240 Y-49.0699
G01 X139.7269 Y-49.0793
G01 X139.7284 Y-49.0865
G01 X139.7296 Y-49.0962
G01 X139.7299 Y-49.1036
G01 X139.7299 Y-49.3775
G01 X139.7307 Y-49.3947
G01 X139.7329 Y-49.4093
G01 X139.7365 Y-49.4235
G01 X139.7414 Y-49.4374
G01 X139.7477 Y-49.4507
G01 X139.7553 Y-49.4633
G01 X139.7640 Y-49.4752
G01 X139.7756 Y-49.4879
G01 X140.8206 Y-50.5329
G01 X140.8287 Y-50.5421
G01 X140.8356 Y-50.5522
G01 X140.8392 Y-50.5586
G01 X140.8423 Y-50.5653
G01 X140.8463 Y-50.5769
G01 X140.8488 Y-50.5889
G01 X140.8496 Y-50.5962
G01 X140.8499 Y-50.6036
G01 X140.8499 Y-52.7409
G01 X140.8496 Y-52.7485
G01 X140.8483 Y-52.7587
G01 X140.8459 Y-52.7686
G01 X140.8426 Y-52.7783
G01 X140.8383 Y-52.7875
G01 X140.8345 Y-52.7942
G01 X140.8286 Y-52.8025
G01 X140.8219 Y-52.8102
G01 X140.8144 Y-52.8172
G01 X140.8063 Y-52.8234
G01 X140.7976 Y-52.8288
G01 X140.7883 Y-52.8332
G01 X140.7322 Y-52.8534
G01 X140.6701 Y-52.8828
G01 X140.6112 Y-52.9181
G01 X140.5560 Y-52.9590
G01 X140.5051 Y-53.0051
G01 X140.4590 Y-53.0560
G01 X140.4181 Y-53.1112
G01 X140.3828 Y-53.1701
G01 X140.3534 Y-53.2322
G01 X140.3303 Y-53.2968
G01 X140.3136 Y-53.3635
G01 X140.3035 Y-53.4314
G01 X140.3001 Y-53.5000
G01 X140.3035 Y-53.5686
G01 X140.3136 Y-53.6365
G01 X140.3303 Y-53.7032
G01 X140.3534 Y-53.7678
G01 X140.3828 Y-53.8299
G01 X140.4181 Y-53.8888
G01 X140.4590 Y-53.9440
G01 X140.5051 Y-53.9949
G01 X140.5560 Y-54.0410
G01 X140.6112 Y-54.0819
G01 X140.6701 Y-54.1172
G01 X140.7322 Y-54.1466
G01 X140.7968 Y-54.1697
G01 X140.8635 Y-54.1864
G01 X140.9314 Y-54.1965
G01 X141.0000 Y-54.1999
G01 X141.0686 Y-54.1965
G01 X141.1365 Y-54.1864
G01 X141.2032 Y-54.1697
G01 X141.2678 Y-54.1466
G01 X141.3299 Y-54.1172
G01 X141.3888 Y-54.0819
G01 X141.4440 Y-54.0410
G01 X141.4949 Y-53.9949
G01 X141.5410 Y-53.9440
G01 X141.5819 Y-53.8888
G01 X141.6172 Y-53.8299
G01 X141.6466 Y-53.7678
G01 X141.6697 Y-53.7032
G01 X141.6864 Y-53.6365
G01 X141.6965 Y-53.5686
G01 X141.6999 Y-53.5000
G01 X141.6965 Y-53.4314
G01 X141.6864 Y-53.3635
G01 X141.6697 Y-53.2968
G01 X141.6466 Y-53.2322
G01 X141.6172 Y-53.1701
G01 X141.5819 Y-53.1112
G01 X141.5410 Y-53.0560
G01 X141.4949 Y-53.0051
G01 X141.4440 Y-52.9590
G01 X141.3888 Y-52.9181
G01 X141.3299 Y-52.8828
G01 X141.2678 Y-52.8534
G01 X141.2164 Y-52.8350
G01 X141.2093 Y-52.8321
G01 X141.2002 Y-52.8275
G01 X141.1896 Y-52.8204
G01 X141.1837 Y-52.8156
G01 X141.1764 Y-52.8084
G01 X141.1699 Y-52.8005
G01 X141.1642 Y-52.7920
G01 X141.1605 Y-52.7853
G01 X141.1565 Y-52.7759
G01 X141.1541 Y-52.7686
G01 X141.1517 Y-52.7587
G01 X141.1504 Y-52.7485
G01 X141.1501 Y-52.7409
G01 X141.1501 Y-50.5025
G01 X141.1493 Y-50.4853
G01 X141.1471 Y-50.4707
G01 X141.1435 Y-50.4565
G01 X141.1386 Y-50.4426
G01 X141.1323 Y-50.4293
G01 X141.1247 Y-50.4167
G01 X141.1160 Y-50.4048
G01 X141.1044 Y-50.3921
G01 X140.0577 Y-49.3453
G01 X140.0528 Y-49.3398
G01 X140.0484 Y-49.3340
G01 X140.0444 Y-49.3278
G01 X140.0397 Y-49.3192
G01 X140.0368 Y-49.3124
G01 X140.0344 Y-49.3054
G01 X140.0320 Y-49.2959
G01 X140.0309 Y-49.2886
G01 X140.0301 Y-49.2764
G01 X140.0301 Y-45.2591
G01 X140.0306 Y-45.2489
G01 X140.0322 Y-45.2388
G01 X140.0348 Y-45.2289
G01 X140.0384 Y-45.2194
G01 X140.0429 Y-45.2102
G01 X140.0484 Y-45.2016
G01 X140.0564 Y-45.1916
G01 X140.0637 Y-45.1844
G01 X140.0716 Y-45.1780
G01 X140.0802 Y-45.1725
G01 X140.0893 Y-45.1679
G01 X140.0964 Y-45.1650
G01 X140.1478 Y-45.1466
G01 X140.2099 Y-45.1172
G01 X140.2688 Y-45.0819
G01 X140.3240 Y-45.0410
G01 X140.3749 Y-44.9949
G01 X140.4210 Y-44.9440
G01 X140.4619 Y-44.8888
G01 X140.4972 Y-44.8299
G01 X140.5266 Y-44.7678
G01 X140.5497 Y-44.7032
G01 X140.5664 Y-44.6365
G01 X140.5765 Y-44.5686
G01 X140.5799 Y-44.5000
G01 X140.5765 Y-44.4314
G01 X140.5664 Y-44.3635
G01 X140.5497 Y-44.2968
G01 X140.5266 Y-44.2322
G01 X140.4972 Y-44.1701
G01 X140.4619 Y-44.1112
G01 X140.4210 Y-44.0560
G01 X140.3749 Y-44.0051
G01 X140.3240 Y-43.9590
G01 X140.2688 Y-43.9181
G01 X140.2099 Y-43.8828
G01 X140.1478 Y-43.8534
G01 X140.0832 Y-43.8303
G01 X140.0165 Y-43.8136
G01 X139.9486 Y-43.8035
G01 X139.8800 Y-43.8001
G01 X139.8114 Y-43.8035
G01 X139.7435 Y-43.8136
G01 X139.6768 Y-43.8303
G01 X139.6122 Y-43.8534
G01 X139.5501 Y-43.8828
G01 X139.4912 Y-43.9181
G01 X139.4360 Y-43.9590
G01 X139.3851 Y-44.0051
G01 X139.3390 Y-44.0560
G01 X139.2981 Y-44.1112
G01 X139.2628 Y-44.1701
G01 X139.2334 Y-44.2322
G01 X139.2103 Y-44.2968
G01 X139.1936 Y-44.3635
G01 X139.1835 Y-44.4314
G01 X139.1801 Y-44.5000
G01 X139.1835 Y-44.5686
G01 X139.1936 Y-44.6365
G01 X139.2103 Y-44.7032
G01 X139.2334 Y-44.7678
G01 X139.2628 Y-44.8299
G01 X139.2981 Y-44.8888
G01 X139.3390 Y-44.9440
G01 X139.3851 Y-44.9949
G01 X139.4360 Y-45.0410
G01 X139.4912 Y-45.0819
G01 X139.5501 Y-45.1172
G01 X139.6122 Y-45.1466
G01 X139.6636 Y-45.1650
G01 X139.6707 Y-45.1679
G01 X139.6798 Y-45.1725
G01 X139.6884 Y-45.1780
G01 X139.6963 Y-45.1844
G01 X139.7036 Y-45.1916
G01 X139.7116 Y-45.2016
G01 X139.7171 Y-45.2102
G01 X139.7216 Y-45.2194
G01 X139.7252 Y-45.2289
G01 X139.7278 Y-45.2388
G01 X139.7294 Y-45.2489
G01 X139.7299 Y-45.2591
G01 X139.7298 Y-48.3986
G01 X139.7291 Y-48.4084
G01 X139.7274 Y-48.4181
G01 X139.7248 Y-48.4275
G01 X139.7213 Y-48.4367
G01 X139.7169 Y-48.4454
G01 X139.7116 Y-48.4537
G01 X139.7056 Y-48.4615
G01 X139.6988 Y-48.4686
G01 X139.6914 Y-48.4750
G01 X139.6834 Y-48.4806
G01 X139.6748 Y-48.4855
G01 X139.6659 Y-48.4894
G01 X139.6565 Y-48.4925
G01 X139.6470 Y-48.4947
G01 X139.6372 Y-48.4959
G01 X139.6274 Y-48.4961
G01 X139.6176 Y-48.4954
G01 X139.6080 Y-48.4937
G01 X139.5985 Y-48.4911
G01 X139.5916 Y-48.4885
G01 X139.5827 Y-48.4843
G01 X139.5743 Y-48.4793
G01 X139.5664 Y-48.4734
G01 X139.5592 Y-48.4669
G01 X135.1794 Y-44.0871
G01 X135.1744 Y-44.0817
G01 X135.1698 Y-44.0760
G01 X135.1656 Y-44.0699
G01 X135.1608 Y-44.0614
G01 X135.1577 Y-44.0547
G01 X135.1552 Y-44.0478
G01 X135.1531 Y-44.0407
G01 X135.1516 Y-44.0335
G01 X135.1504 Y-44.0238
G01 X135.1501 Y-44.0164
G01 X135.1501 Y-20.2501
G01 X135.1506 Y-20.2403
G01 X135.1526 Y-20.2282
G01 X135.1560 Y-20.2164
G01 X135.1608 Y-20.2052
G01 X135.1670 Y-20.1946
G01 X135.1744 Y-20.1848
G01 X135.1812 Y-20.1777
G01 X135.1906 Y-20.1698
G01 X135.1966 Y-20.1656
G01 X135.2030 Y-20.1619
G01 X135.2119 Y-20.1577
G01 X135.2188 Y-20.1552
G01 X135.2258 Y-20.1531
G01 X135.2355 Y-20.1512
G01 X135.2428 Y-20.1504
G01 X135.2501 Y-20.1501
G01 X187.8964 Y-20.1501
G01 X187.9086 Y-20.1509
G01 X187.9159 Y-20.1520
G01 X187.9231 Y-20.1537
G01 X187.9347 Y-20.1577
G01 X187.9457 Y-20.1631
G01 X187.9560 Y-20.1698
G01 X187.9617 Y-20.1744
G01 X187.9671 Y-20.1794
G01 X190.8206 Y-23.0329
G01 X190.8272 Y-23.0402
G01 X190.8316 Y-23.0460
G01 X190.8356 Y-23.0522
G01 X190.8403 Y-23.0608
G01 X190.8432 Y-23.0676
G01 X190.8463 Y-23.0769
G01 X190.8484 Y-23.0865
G01 X190.8496 Y-23.0962
G01 X190.8499 Y-23.1036
G01 X190.8498 Y-54.9013
G01 X190.8488 Y-54.9111
G01 X190.8469 Y-54.9207
G01 X190.8440 Y-54.9301
G01 X190.8413 Y-54.9369
G01 X190.8369 Y-54.9457
G01 X190.8316 Y-54.9540
G01 X190.8272 Y-54.9598
G01 X190.8206 Y-54.9671
G01 X185.8956 Y-59.8921
G01 X185.8840 Y-59.9048
G01 X185.8753 Y-59.9167
G01 X185.8677 Y-59.9293
G01 X185.8614 Y-59.9426
G01 X185.8565 Y-59.9565
G01 X185.8529 Y-59.9707
G01 X185.8507 Y-59.9853
G01 X185.8499 Y-60.0025
G01 X185.8499 Y-62.2812
G01 X185.8496 Y-62.2888
G01 X185.8483 Y-62.2990
G01 X185.8459 Y-62.3089
G01 X185.8426 Y-62.3186
G01 X185.8383 Y-62.3279
G01 X185.8345 Y-62.3345
G01 X185.8286 Y-62.3428
G01 X185.8219 Y-62.3506
G01 X185.8144 Y-62.3575
G01 X185.8084 Y-62.3623
G01 X185.7998 Y-62.3678
G01 X185.7907 Y-62.3725
G01 X185.7467 Y-62.3885
G01 X185.6880 Y-62.4163
G01 X185.6323 Y-62.4497
G01 X185.5801 Y-62.4884
G01 X185.5320 Y-62.5320
G01 X185.4884 Y-62.5801
G01 X185.4497 Y-62.6323
G01 X185.4163 Y-62.6880
G01 X185.3885 Y-62.7467
G01 X185.3744 Y-62.7860
G01 X185.3691 Y-62.7976
G01 X185.3637 Y-62.8063
G01 X185.3592 Y-62.8124
G01 X185.3524 Y-62.8201
G01 X185.3468 Y-62.8253
G01 X185.3408 Y-62.8301
G01 X185.3323 Y-62.8358
G01 X185.3256 Y-62.8395
G01 X185.3162 Y-62.8435
G01 X185.3089 Y-62.8459
G01 X185.2990 Y-62.8483
G01 X185.2888 Y-62.8496
G01 X185.2812 Y-62.8499
G01 X179.4836 Y-62.8499
G01 X179.4714 Y-62.8491
G01 X179.4641 Y-62.8480
G01 X179.4569 Y-62.8463
G01 X179.4453 Y-62.8423
G01 X179.4343 Y-62.8369
G01 X179.4240 Y-62.8302
G01 X179.4183 Y-62.8256
G01 X179.4129 Y-62.8206
G01 X172.0594 Y-55.4671
G01 X172.0544 Y-55.4617
G01 X172.0498 Y-55.4560
G01 X172.0444 Y-55.4478
G01 X172.0397 Y-55.4392
G01 X172.0368 Y-55.4324
G01 X172.0337 Y-55.4231
G01 X172.0320 Y-55.4159
G01 X172.0309 Y-55.4086
G01 X172.0302 Y-55.3989
G01 X172.0301 Y-54.2591
G01 X172.0309 Y-54.2464
G01 X172.0334 Y-54.2339
G01 X172.0356 Y-54.2265
G01 X172.0394 Y-54.2170
G01 X172.0429 Y-54.2102
G01 X172.0469 Y-54.2037
G01 X172.0530 Y-54.1955
G01 X172.0581 Y-54.1898
G01 X172.0637 Y-54.1844
G01 X172.0696 Y-54.1796
G01 X172.0802 Y-54.1725
G01 X172.0893 Y-54.1679
G01 X172.0964 Y-54.1650
G01 X172.1478 Y-54.1466
G01 X172.2099 Y-54.1172
G01 X172.2688 Y-54.0819
G01 X172.3240 Y-54.0410
G01 X172.3749 Y-53.9949
G01 X172.4210 Y-53.9440
G01 X172.4619 Y-53.8888
G01 X172.4972 Y-53.8299
G01 X172.5266 Y-53.7678
G01 X172.5497 Y-53.7032
G01 X172.5664 Y-53.6365
G01 X172.5765 Y-53.5686
G01 X172.5799 Y-53.5000
G01 X172.5765 Y-53.4314
G01 X172.5664 Y-53.3635
G01 X172.5497 Y-53.2968
G01 X172.5266 Y-53.2322
G01 X172.4972 Y-53.1701
G01 X172.4619 Y-53.1112
G01 X172.4210 Y-53.0560
G01 X172.3749 Y-53.0051
G01 X172.3240 Y-52.9590
G01 X172.2688 Y-52.9181
G01 X172.2099 Y-52.8828
G01 X172.1478 Y-52.8534
G01 X172.0917 Y-52.8332
G01 X172.0824 Y-52.8288
G01 X172.0737 Y-52.8234
G01 X172.0676 Y-52.8189
G01 X172.0599 Y-52.8121
G01 X172.0530 Y-52.8045
G01 X172.0469 Y-52.7963
G01 X172.0429 Y-52.7898
G01 X172.0384 Y-52.7806
G01 X172.0348 Y-52.7711
G01 X172.0322 Y-52.7612
G01 X172.0306 Y-52.7511
G01 X172.0301 Y-52.7409
G01 X172.0301 Y-50.8825
G01 X172.0293 Y-50.8653
G01 X172.0271 Y-50.8507
G01 X172.0235 Y-50.8365
G01 X172.0186 Y-50.8226
G01 X172.0123 Y-50.8093
G01 X172.0047 Y-50.7967
G01 X171.9960 Y-50.7848
G01 X171.9844 Y-50.7721
G01 X170.5594 Y-49.3471
G01 X170.5528 Y-49.3398
G01 X170.5484 Y-49.3340
G01 X170.5444 Y-49.3278
G01 X170.5397 Y-49.3192
G01 X170.5368 Y-49.3124
G01 X170.5337 Y-49.3031
G01 X170.5320 Y-49.2959
G01 X170.5306 Y-49.2862
G01 X170.5301 Y-49.2764
G01 X170.5301 Y-45.7991
G01 X170.5309 Y-45.7864
G01 X170.5328 Y-45.7763
G01 X170.5356 Y-45.7665
G01 X170.5394 Y-45.7570
G01 X170.5442 Y-45.7480
G01 X170.5514 Y-45.7375
G01 X170.5581 Y-45.7298
G01 X170.5656 Y-45.7228
G01 X170.5737 Y-45.7166
G01 X170.5824 Y-45.7112
G01 X170.5917 Y-45.7068
G01 X170.6478 Y-45.6866
G01 X170.7099 Y-45.6572
G01 X170.7688 Y-45.6219
G01 X170.8240 Y-45.5810
G01 X170.8749 Y-45.5349
G01 X170.9210 Y-45.4840
G01 X170.9619 Y-45.4288
G01 X170.9972 Y-45.3699
G01 X171.0266 Y-45.3078
G01 X171.0497 Y-45.2432
G01 X171.0664 Y-45.1765
G01 X171.0765 Y-45.1086
G01 X171.0799 Y-45.0400
G01 X171.0765 Y-44.9714
G01 X171.0664 Y-44.9035
G01 X171.0497 Y-44.8368
G01 X171.0266 Y-44.7722
G01 X170.9972 Y-44.7101
G01 X170.9619 Y-44.6512
G01 X170.9210 Y-44.5960
G01 X170.8749 Y-44.5451
G01 X170.8240 Y-44.4990
G01 X170.7688 Y-44.4581
G01 X170.7099 Y-44.4228
G01 X170.6478 Y-44.3934
G01 X170.5832 Y-44.3703
G01 X170.5165 Y-44.3536
G01 X170.4486 Y-44.3435
G01 X170.3800 Y-44.3401
G01 X170.3114 Y-44.3435
G01 X170.2435 Y-44.3536
G01 X170.1768 Y-44.3703
G01 X170.1122 Y-44.3934
G01 X170.0501 Y-44.4228
G01 X169.9912 Y-44.4581
G01 X169.9360 Y-44.4990
G01 X169.8851 Y-44.5451
G01 X169.8390 Y-44.5960
G01 X169.7981 Y-44.6512
G01 X169.7628 Y-44.7101
G01 X169.7334 Y-44.7722
G01 X169.7103 Y-44.8368
G01 X169.6936 Y-44.9035
G01 X169.6835 Y-44.9714
G01 X169.6801 Y-45.0400
G01 X169.6835 Y-45.1086
G01 X169.6936 Y-45.1765
G01 X169.7103 Y-45.2432
G01 X169.7334 Y-45.3078
G01 X169.7628 Y-45.3699
G01 X169.7981 Y-45.4288
G01 X169.8390 Y-45.4840
G01 X169.8851 Y-45.5349
G01 X169.9360 Y-45.5810
G01 X169.9912 Y-45.6219
G01 X170.0501 Y-45.6572
G01 X170.1122 Y-45.6866
G01 X170.1683 Y-45.7068
G01 X170.1776 Y-45.7112
G01 X170.1863 Y-45.7166
G01 X170.1944 Y-45.7228
G01 X170.2019 Y-45.7298
G01 X170.2086 Y-45.7375
G01 X170.2158 Y-45.7480
G01 X170.2206 Y-45.7570
G01 X170.2244 Y-45.7665
G01 X170.2272 Y-45.7763
G01 X170.2291 Y-45.7864
G01 X170.2299 Y-45.7991
G01 X170.2299 Y-49.3775
G01 X170.2307 Y-49.3947
G01 X170.2329 Y-49.4093
G01 X170.2365 Y-49.4235
G01 X170.2414 Y-49.4374
G01 X170.2477 Y-49.4507
G01 X170.2553 Y-49.4633
G01 X170.2640 Y-49.4752
G01 X170.2756 Y-49.4879
G01 X171.7006 Y-50.9129
G01 X171.7056 Y-50.9183
G01 X171.7102 Y-50.9240
G01 X171.7144 Y-50.9301
G01 X171.7181 Y-50.9365
G01 X171.7213 Y-50.9431
G01 X171.7240 Y-50.9499
G01 X171.7263 Y-50.9569
G01 X171.7280 Y-50.9641
G01 X171.7294 Y-50.9738
G01 X171.7299 Y-50.9836
G01 X171.7299 Y-52.7409
G01 X171.7294 Y-52.7511
G01 X171.7278 Y-52.7612
G01 X171.7252 Y-52.7711
G01 X171.7216 Y-52.7806
G01 X171.7171 Y-52.7898
G01 X171.7131 Y-52.7963
G01 X171.7070 Y-52.8045
G01 X171.7001 Y-52.8121
G01 X171.6924 Y-52.8189
G01 X171.6863 Y-52.8234
G01 X171.6776 Y-52.8288
G01 X171.6683 Y-52.8332
G01 X171.6122 Y-52.8534
G01 X171.5501 Y-52.8828
G01 X171.4912 Y-52.9181
G01 X171.4360 Y-52.9590
G01 X171.3851 Y-53.0051
G01 X171.3390 Y-53.0560
G01 X171.2981 Y-53.1112
G01 X171.2628 Y-53.1701
G01 X171.2334 Y-53.2322
G01 X171.2103 Y-53.2968
G01 X171.1936 Y-53.3635
G01 X171.1835 Y-53.4314
G01 X171.1801 Y-53.5000
G01 X171.1835 Y-53.5686
G01 X171.1936 Y-53.6365
G01 X171.2103 Y-53.7032
G01 X171.2334 Y-53.7678
G01 X171.2628 Y-53.8299
G01 X171.2981 Y-53.8888
G01 X171.3390 Y-53.9440
G01 X171.3851 Y-53.9949
G01 X171.4360 Y-54.0410
G01 X171.4912 Y-54.0819
G01 X171.5501 Y-54.1172
G01 X171.6122 Y-54.1466
G01 X171.6636 Y-54.1650
G01 X171.6707 Y-54.1679
G01 X171.6798 Y-54.1725
G01 X171.6904 Y-54.1796
G01 X171.6963 Y-54.1844
G01 X171.7019 Y-54.1898
G01 X171.7070 Y-54.1955
G01 X171.7131 Y-54.2037
G01 X171.7171 Y-54.2102
G01 X171.7206 Y-54.2170
G01 X171.7235 Y-54.2241
G01 X171.7259 Y-54.2314
G01 X171.7287 Y-54.2439
G01 X171.7296 Y-54.2515
G01 X171.7299 Y-54.2591
G01 X171.7299 Y-55.4975
G01 X171.7307 Y-55.5147
G01 X171.7329 Y-55.5293
G01 X171.7365 Y-55.5435
G01 X171.7414 Y-55.5574
G01 X171.7477 Y-55.5707
G01 X171.7553 Y-55.5833
G01 X171.7640 Y-55.5952
G01 X171.7756 Y-55.6079
G01 X179.2721 Y-63.1044
G01 X179.2848 Y-63.1160
G01 X179.2967 Y-63.1247
G01 X179.3093 Y-63.1323
G01 X179.3226 Y-63.1386
G01 X179.3365 Y-63.1435
G01 X179.3507 Y-63.1471
G01 X179.3653 Y-63.1493
G01 X179.3825 Y-63.1501
G01 X185.2812 Y-63.1501
G01 X185.2888 Y-63.1504
G01 X185.2990 Y-63.1517
G01 X185.3089 Y-63.1541
G01 X185.3186 Y-63.1574
G01 X185.3279 Y-63.1617
G01 X185.3387 Y-63.1684
G01 X185.3468 Y-63.1747
G01 X185.3541 Y-63.1818
G01 X185.3607 Y-63.1896
G01 X185.3678 Y-63.2002
G01 X185.3725 Y-63.2093
G01 X185.3885 Y-63.2533
G01 X185.4163 Y-63.3120
G01 X185.4497 Y-63.3677
G01 X185.4884 Y-63.4199
G01 X185.5320 Y-63.4680
G01 X185.5801 Y-63.5116
G01 X185.6323 Y-63.5503
G01 X185.6880 Y-63.5837
G01 X185.7467 Y-63.6115
G01 X185.8079 Y-63.6334
G01 X185.8709 Y-63.6492
G01 X185.9351 Y-63.6587
G01 X186.0000 Y-63.6619
G01 X186.0649 Y-63.6587
G01 X186.1291 Y-63.6492
G01 X186.1921 Y-63.6334
G01 X186.2533 Y-63.6115
G01 X186.3120 Y-63.5837
G01 X186.3677 Y-63.5503
G01 X186.4199 Y-63.5116
G01 X186.4680 Y-63.4680
G01 X186.5116 Y-63.4199
G01 X186.5503 Y-63.3677
G01 X186.5837 Y-63.3120
G01 X186.6115 Y-63.2533
G01 X186.6334 Y-63.1921
G01 X186.6492 Y-63.1291
G01 X186.6587 Y-63.0649
G01 X186.6619 Y-63.0000
G01 X186.6587 Y-62.9351
G01 X186.6492 Y-62.8709
G01 X186.6334 Y-62.8079
G01 X186.6115 Y-62.7467
G01 X186.5837 Y-62.6880
G01 X186.5503 Y-62.6323
G01 X186.5116 Y-62.5801
G01 X186.4680 Y-62.5320
G01 X186.4199 Y-62.4884
G01 X186.3677 Y-62.4497
G01 X186.3120 Y-62.4163
G01 X186.2533 Y-62.3885
G01 X186.2093 Y-62.3725
G01 X186.2002 Y-62.3678
G01 X186.1916 Y-62.3623
G01 X186.1856 Y-62.3575
G01 X186.1781 Y-62.3506
G01 X186.1714 Y-62.3428
G01 X186.1655 Y-62.3345
G01 X186.1617 Y-62.3279
G01 X186.1574 Y-62.3186
G01 X186.1541 Y-62.3089
G01 X186.1517 Y-62.2990
G01 X186.1504 Y-62.2888
G01 X186.1501 Y-62.2812
G01 X186.1501 Y-60.1036
G01 X186.1509 Y-60.0914
G01 X186.1531 Y-60.0793
G01 X186.1552 Y-60.0722
G01 X186.1577 Y-60.0653
G01 X186.1631 Y-60.0543
G01 X186.1670 Y-60.0480
G01 X186.1713 Y-60.0421
G01 X186.1794 Y-60.0329
G01 X191.1044 Y-55.1079
G01 X191.1160 Y-55.0952
G01 X191.1247 Y-55.0833
G01 X191.1323 Y-55.0707
G01 X191.1386 Y-55.0574
G01 X191.1435 Y-55.0435
G01 X191.1471 Y-55.0293
G01 X191.1493 Y-55.0147
G01 X191.1501 Y-54.9975
G01 X191.1501 Y-23.0025
G01 X191.1493 Y-22.9853
G01 X191.1471 Y-22.9707
G01 X191.1435 Y-22.9565
G01 X191.1386 Y-22.9426
G01 X191.1323 Y-22.9293
G01 X191.1247 Y-22.9167
G01 X191.1160 Y-22.9048
G01 X191.1044 Y-22.8921
G01 X188.1079 Y-19.8956
G01 X188.0952 Y-19.8840
G01 X188.0833 Y-19.8753
G01 X188.0707 Y-19.8677
G01 X188.0574 Y-19.8614
G01 X188.0435 Y-19.8565
G01 X188.0293 Y-19.8529
G01 X188.0147 Y-19.8507
G01 X187.9975 Y-19.8499
G01 X122.0025 Y-19.8499
G01 X121.9853 Y-19.8507
G01 X121.9707 Y-19.8529
G01 X121.9565 Y-19.8565
G01 X121.9426 Y-19.8614
G01 X121.9293 Y-19.8677
G01 X121.9167 Y-19.8753
G01 X121.9048 Y-19.8840
G01 X121.8921 Y-19.8956
G01 X121.1456 Y-20.6421
G01 X121.1340 Y-20.6548
G01 X121.1253 Y-20.6667
G01 X121.1177 Y-20.6793
G01 X121.1114 Y-20.6926
G01 X121.1065 Y-20.7065
G01 X121.1029 Y-20.7207
G01 X121.1007 Y-20.7353
G01 X121.0999 Y-20.7525
G01 X121.0999 Y-51.1864
G01 X121.0996 Y-51.1938
G01 X121.0988 Y-51.2011
G01 X121.0969 Y-51.2107
G01 X121.0940 Y-51.2201
G01 X121.0903 Y-51.2291
G01 X121.0856 Y-51.2378
G01 X121.0816 Y-51.2440
G01 X121.0772 Y-51.2498
G01 X121.0706 Y-51.2571
G01 X119.4306 Y-52.8970
G01 X119.4211 Y-52.9055
G01 X119.4127 Y-52.9113
G01 X119.4014 Y-52.9173
G01 X119.3919 Y-52.9211
G01 X119.3845 Y-52.9233
G01 X119.3770 Y-52.9249
G01 X119.3694 Y-52.9259
G01 X119.3618 Y-52.9263
G01 X119.3541 Y-52.9262
G01 X119.3465 Y-52.9254
G01 X119.3340 Y-52.9229
G01 X119.3266 Y-52.9206
G01 X119.3195 Y-52.9178
G01 X119.2678 Y-52.8934
G01 X119.2164 Y-52.8750
G01 X119.2056 Y-52.8704
G01 X119.1954 Y-52.8645
G01 X119.1859 Y-52.8575
G01 X119.1773 Y-52.8494
G01 X119.1697 Y-52.8403
G01 X119.1633 Y-52.8305
G01 X119.1590 Y-52.8221
G01 X119.1548 Y-52.8111
G01 X119.1519 Y-52.7996
G01 X119.1506 Y-52.7903
G01 X119.1501 Y-52.7809
G01 X119.1501 Y-51.6625
G01 X119.1493 Y-51.6453
G01 X119.1471 Y-51.6307
G01 X119.1435 Y-51.6165
G01 X119.1386 Y-51.6026
G01 X119.1323 Y-51.5893
G01 X119.1247 Y-51.5767
G01 X119.1160 Y-51.5648
G01 X119.1044 Y-51.5521
G01 X117.5594 Y-50.0071
G01 X117.5528 Y-49.9998
G01 X117.5484 Y-49.9940
G01 X117.5444 Y-49.9878
G01 X117.5408 Y-49.9814
G01 X117.5368 Y-49.9724
G01 X117.5344 Y-49.9654
G01 X117.5326 Y-49.9583
G01 X117.5312 Y-49.9511
G01 X117.5304 Y-49.9438
G01 X117.5301 Y-49.9364
G01 X117.5301 Y-45.8685
G01 X117.5308 Y-45.8566
G01 X117.5329 Y-45.8450
G01 X117.5364 Y-45.8336
G01 X117.5412 Y-45.8228
G01 X117.5472 Y-45.8126
G01 X117.5544 Y-45.8032
G01 X117.5627 Y-45.7947
G01 X117.5719 Y-45.7872
G01 X117.5819 Y-45.7809
G01 X117.5926 Y-45.7758
G01 X117.5993 Y-45.7733
G01 X117.6061 Y-45.7714
G01 X117.6131 Y-45.7699
G01 X117.6365 Y-45.7664
G01 X117.7032 Y-45.7497
G01 X117.7678 Y-45.7266
G01 X117.8299 Y-45.6972
G01 X117.8888 Y-45.6619
G01 X117.9440 Y-45.6210
G01 X117.9949 Y-45.5749
G01 X118.0410 Y-45.5240
G01 X118.0819 Y-45.4688
G01 X118.1172 Y-45.4099
G01 X118.1466 Y-45.3478
G01 X118.1697 Y-45.2832
G01 X118.1864 Y-45.2165
G01 X118.1965 Y-45.1486
G01 X118.1999 Y-45.0800
G01 X118.1965 Y-45.0114
G01 X118.1864 Y-44.9435
G01 X118.1697 Y-44.8768
G01 X118.1466 Y-44.8122
G01 X118.1172 Y-44.7501
G01 X118.0819 Y-44.6912
G01 X118.0410 Y-44.6360
G01 X117.9949 Y-44.5851
G01 X117.9440 Y-44.5390
G01 X117.8888 Y-44.4981
G01 X117.8299 Y-44.4628
G01 X117.7678 Y-44.4334
G01 X117.7032 Y-44.4103
G01 X117.6365 Y-44.3936
G01 X117.5686 Y-44.3835
G01 X117.5000 Y-44.3801
G01 X117.4314 Y-44.3835
G01 X117.3635 Y-44.3936
G01 X117.2968 Y-44.4103
G01 X117.2322 Y-44.4334
G01 X117.1701 Y-44.4628
G01 X117.1112 Y-44.4981
G01 X117.0560 Y-44.5390
G01 X117.0051 Y-44.5851
G01 X116.9590 Y-44.6360
G01 X116.9181 Y-44.6912
G01 X116.8828 Y-44.7501
G01 X116.8534 Y-44.8122
G01 X116.8303 Y-44.8768
G01 X116.8136 Y-44.9435
G01 X116.8035 Y-45.0114
G01 X116.8001 Y-45.0800
G01 X116.8035 Y-45.1486
G00 Z1.0000
G00 X124.7167 Y-45.0800
G01 F30.00
G01 Z0.0000
G01 F100.00
G01 X124.7286 Y-45.0556
G01 X124.7350 Y-45.0407
G01 X124.7403 Y-45.0269
G01 X124.7485 Y-45.0017
G01 X124.7568 Y-44.9698
G01 X124.7694 Y-44.9348
G01 X124.7853 Y-44.9011
G01 X124.8045 Y-44.8692
G01 X124.8266 Y-44.8393
G01 X124.8517 Y-44.8117
G01 X124.8793 Y-44.7866
G01 X124.9092 Y-44.7645
G01 X124.9411 Y-44.7453
G01 X124.9748 Y-44.7294
G01 X125.0098 Y-44.7168
G01 X125.0460 Y-44.7078
G01 X125.0828 Y-44.7023
G01 X125.1200 Y-44.7005
G01 X125.1572 Y-44.7023
G01 X125.1940 Y-44.7078
G01 X125.2302 Y-44.7168
G01 X125.2652 Y-44.7294
G01 X125.3120 Y-44.7513
G01 X125.3281 Y-44.7579
G01 X125.3439 Y-44.7637
G01 X125.3624 Y-44.7696
G01 X125.3792 Y-44.7741
G01 X125.3982 Y-44.7783
G01 X125.4182 Y-44.7818
G01 X125.4213 Y-44.7998
G01 X125.4250 Y-44.8168
G01 X125.4292 Y-44.8331
G01 X125.4348 Y-44.8517
G01 X125.4406 Y-44.8681
G01 X125.4479 Y-44.8861
G01 X125.4706 Y-44.9348
G01 X125.4832 Y-44.9698
G01 X125.4922 Y-45.0060
G01 X125.4977 Y-45.0428
G01 X125.4995 Y-45.0800
G01 X125.4977 Y-45.1172
G01 X125.4922 Y-45.1540
G01 X125.4832 Y-45.1902
G01 X125.4706 Y-45.2252
G01 X125.4547 Y-45.2589
G01 X125.4355 Y-45.2908
G01 X125.4134 Y-45.3207
G01 X125.3883 Y-45.3483
G01 X125.3607 Y-45.3734
G01 X125.3308 Y-45.3955
G01 X125.2989 Y-45.4147
G01 X125.2652 Y-45.4306
G01 X125.2302 Y-45.4432
G01 X125.1940 Y-45.4522
G01 X125.1749 Y-45.4553
G01 X125.1554 Y-45.4593
G01 X125.1416 Y-45.4627
G01 X125.1243 Y-45.4678
G01 X125.1054 Y-45.4742
G01 X125.0869 Y-45.4815
G01 X125.0687 Y-45.4897
G01 X125.0527 Y-45.4978
G01 X125.0399 Y-45.4850
G01 X125.0326 Y-45.4783
G01 X125.0309 Y-45.4767
G01 X125.0295 Y-45.4755
G01 X125.0253 Y-45.4717
G01 X125.0100 Y-45.4591
G01 X124.9942 Y-45.4473
G01 X124.9795 Y-45.4372
G01 X124.9675 Y-45.4297
G01 X124.9439 Y-45.4163
G01 X124.9092 Y-45.3955
G01 X124.8793 Y-45.3734
G01 X124.8517 Y-45.3483
G01 X124.8266 Y-45.3207
G01 X124.8045 Y-45.2908
G01 X124.7853 Y-45.2589
G01 X124.7694 Y-45.2252
G01 X124.7568 Y-45.1902
G01 X124.7485 Y-45.1583
G01 X124.7403 Y-45.1331
G01 X124.7350 Y-45.1193
G01 X124.7286 Y-45.1044
G01 X124.7167 Y-45.0800
G01 X124.8912 Y-45.0800
G01 X124.9013 Y-45.0491
G01 X124.9101 Y-45.0163
G01 X124.9174 Y-44.9961
G01 X124.9266 Y-44.9766
G01 X124.9377 Y-44.9582
G01 X124.9505 Y-44.9409
G01 X124.9649 Y-44.9249
G01 X124.9809 Y-44.9105
G01 X124.9982 Y-44.8977
G01 X125.0166 Y-44.8866
G01 X125.0361 Y-44.8774
G01 X125.0563 Y-44.8701
G01 X125.0772 Y-44.8649
G01 X125.0985 Y-44.8618
G01 X125.1200 Y-44.8607
G01 X125.1415 Y-44.8618
G01 X125.1628 Y-44.8649
G01 X125.1837 Y-44.8701
G01 X125.2039 Y-44.8774
G01 X125.2501 Y-44.8989
G01 X125.2681 Y-44.9063
G01 X125.2868 Y-44.9132
G01 X125.2937 Y-44.9319
G01 X125.3011 Y-44.9499
G01 X125.3226 Y-44.9961
G01 X125.3299 Y-45.0163
G01 X125.3351 Y-45.0372
G01 X125.3382 Y-45.0585
G01 X125.3393 Y-45.0800
G01 X125.3382 Y-45.1015
G01 X125.3351 Y-45.1228
G01 X125.3299 Y-45.1437
G01 X125.3226 Y-45.1639
G01 X125.3134 Y-45.1834
G01 X125.3023 Y-45.2018
G01 X125.2895 Y-45.2191
G01 X125.2751 Y-45.2351
G01 X125.2591 Y-45.2495
G01 X125.2418 Y-45.2623
G01 X125.2234 Y-45.2734
G01 X125.2039 Y-45.2826
G01 X125.1837 Y-45.2899
G01 X125.1627 Y-45.2951
G01 X125.1407 Y-45.2989
G01 X125.1189 Y-45.3035
G01 X125.1005 Y-45.3081
G01 X125.0820 Y-45.3134
G01 X125.0668 Y-45.3031
G01 X125.0509 Y-45.2931
G01 X125.0476 Y-45.2911
G01 X125.0444 Y-45.2892
G01 X125.0436 Y-45.2887
G01 X125.0367 Y-45.2847
G01 X125.0224 Y-45.2769
G01 X124.9982 Y-45.2623
G01 X124.9809 Y-45.2495
G01 X124.9649 Y-45.2351
G01 X124.9505 Y-45.2191
G01 X124.9377 Y-45.2018
G01 X124.9266 Y-45.1834
G01 X124.9174 Y-45.1639
G01 X124.9101 Y-45.1437
G01 X124.9013 Y-45.1109
G01 X124.8912 Y-45.0800
G01 X125.0589 Y-45.0800
G01 X125.0634 Y-45.0628
G01 X125.0654 Y-45.0574
G01 X125.0679 Y-45.0521
G01 X125.0709 Y-45.0472
G01 X125.0743 Y-45.0425
G01 X125.0782 Y-45.0382
G01 X125.0825 Y-45.0343
G01 X125.0872 Y-45.0309
G01 X125.0921 Y-45.0279
G01 X125.0974 Y-45.0254
G01 X125.1028 Y-45.0234
G01 X125.1085 Y-45.0220
G01 X125.1142 Y-45.0212
G01 X125.1200 Y-45.0209
G01 X125.1258 Y-45.0212
G01 X125.1315 Y-45.0220
G01 X125.1372 Y-45.0234
G01 X125.1426 Y-45.0254
G01 X125.1643 Y-45.0357
G01 X125.1746 Y-45.0574
G01 X125.1766 Y-45.0628
G01 X125.1780 Y-45.0685
G01 X125.1788 Y-45.0742
G01 X125.1791 Y-45.0800
G01 X125.1788 Y-45.0858
G01 X125.1780 Y-45.0915
G01 X125.1766 Y-45.0972
G01 X125.1746 Y-45.1026
G01 X125.1721 Y-45.1079
G01 X125.1691 Y-45.1128
G01 X125.1657 Y-45.1175
G01 X125.1618 Y-45.1218
G01 X125.1575 Y-45.1257
G01 X125.1528 Y-45.1291
G01 X125.1479 Y-45.1321
G01 X125.1426 Y-45.1346
G01 X125.1372 Y-45.1366
G01 X125.1307 Y-45.1382
G01 X125.1093 Y-45.1420
G01 X125.0872 Y-45.1291
G01 X125.0825 Y-45.1257
G01 X125.0782 Y-45.1218
G01 X125.0743 Y-45.1175
G01 X125.0709 Y-45.1128
G01 X125.0679 Y-45.1079
G01 X125.0654 Y-45.1026
G01 X125.0634 Y-45.0972
G01 X125.0589 Y-45.0800
G01 X125.0092 Y-45.7707
G01 X125.0070 Y-45.7504
G01 X125.0031 Y-45.7301
G01 X124.9972 Y-45.7088
G01 X124.9901 Y-45.6894
G01 X124.9808 Y-45.6693
G01 X124.9705 Y-45.6513
G01 X124.9581 Y-45.6331
G01 X124.9466 Y-45.6188
G01 X124.9367 Y-45.6080
G01 X124.9252 Y-45.5969
G01 X124.9142 Y-45.5874
G01 X124.9015 Y-45.5777
G01 X124.8842 Y-45.5663
G01 X124.8663 Y-45.5564
G01 X124.8202 Y-45.5287
G01 X124.7776 Y-45.4972
G01 X124.7384 Y-45.4616
G01 X124.7028 Y-45.4224
G01 X124.6713 Y-45.3798
G01 X124.6440 Y-45.3344
G01 X124.6214 Y-45.2865
G01 X124.6036 Y-45.2367
G01 X124.5966 Y-45.2090
G01 X124.5909 Y-45.1907
G01 X124.5849 Y-45.1751
G01 X124.5768 Y-45.1578
G01 X124.5707 Y-45.1466
G01 X124.5641 Y-45.1357
G01 X124.5569 Y-45.1251
G01 X124.5492 Y-45.1149
G01 X124.5411 Y-45.1051
G01 X124.5324 Y-45.0957
G01 X124.5233 Y-45.0868
G01 X124.5158 Y-45.0800
G01 X124.5233 Y-45.0732
G01 X124.5324 Y-45.0643
G01 X124.5411 Y-45.0549
G01 X124.5492 Y-45.0451
G01 X124.5569 Y-45.0349
G01 X124.5641 Y-45.0243
G01 X124.5707 Y-45.0134
G01 X124.5768 Y-45.0022
G01 X124.5849 Y-44.9849
G01 X124.5909 Y-44.9693
G01 X124.5966 Y-44.9510
G01 X124.6036 Y-44.9233
G01 X124.6214 Y-44.8735
G01 X124.6440 Y-44.8256
G01 X124.6713 Y-44.7802
G01 X124.7028 Y-44.7376
G01 X124.7384 Y-44.6984
G01 X124.7776 Y-44.6628
G01 X124.8202 Y-44.6313
G01 X124.8656 Y-44.6040
G01 X124.9135 Y-44.5814
G01 X124.9633 Y-44.5636
G01 X125.0147 Y-44.5507
G01 X125.0671 Y-44.5429
G01 X125.1200 Y-44.5403
G01 X125.1729 Y-44.5429
G01 X125.2253 Y-44.5507
G01 X125.2767 Y-44.5636
G01 X125.3265 Y-44.5814
G01 X125.3767 Y-44.6050
G01 X125.3890 Y-44.6099
G01 X125.4016 Y-44.6142
G01 X125.4168 Y-44.6186
G01 X125.4298 Y-44.6215
G01 X125.4429 Y-44.6237
G01 X125.4602 Y-44.6256
G01 X125.4801 Y-44.6263
G01 X125.5000 Y-44.6256
G01 X125.5198 Y-44.6232
G01 X125.5354 Y-44.6203
G01 X125.5547 Y-44.6153
G01 X125.5712 Y-44.6098
G01 X125.5896 Y-44.6021
G01 X125.6066 Y-44.5934
G01 X125.5979 Y-44.6104
G01 X125.5902 Y-44.6288
G01 X125.5839 Y-44.6477
G01 X125.5791 Y-44.6671
G01 X125.5758 Y-44.6867
G01 X125.5740 Y-44.7066
G01 X125.5737 Y-44.7265
G01 X125.5750 Y-44.7464
G01 X125.5773 Y-44.7636
G01 X125.5799 Y-44.7767
G01 X125.5831 Y-44.7896
G01 X125.5878 Y-44.8047
G01 X125.5915 Y-44.8148
G01 X125.5967 Y-44.8271
G01 X125.6186 Y-44.8735
G01 X125.6364 Y-44.9233
G01 X125.6493 Y-44.9747
G01 X125.6571 Y-45.0271
G01 X125.6597 Y-45.0800
G01 X125.6571 Y-45.1329
G01 X125.6493 Y-45.1853
G01 X125.6364 Y-45.2367
G01 X125.6186 Y-45.2865
G01 X125.5960 Y-45.3344
G01 X125.5687 Y-45.3798
G01 X125.5372 Y-45.4224
G01 X125.5016 Y-45.4616
G01 X125.4624 Y-45.4972
G01 X125.4198 Y-45.5287
G01 X125.3744 Y-45.5560
G01 X125.3265 Y-45.5786
G01 X125.2767 Y-45.5964
G01 X125.2253 Y-45.6093
G01 X125.2078 Y-45.6120
G01 X125.1956 Y-45.6143
G01 X125.1836 Y-45.6171
G01 X125.1718 Y-45.6206
G01 X125.1566 Y-45.6259
G01 X125.1430 Y-45.6316
G01 X125.1285 Y-45.6387
G01 X125.1157 Y-45.6459
G01 X125.0971 Y-45.6583
G01 X125.0808 Y-45.6712
G01 X125.0645 Y-45.6864
G01 X125.0520 Y-45.7001
G01 X125.0392 Y-45.7165
G01 X125.0269 Y-45.7352
G01 X125.0169 Y-45.7535
G01 X125.0092 Y-45.7707
G00 Z1.0000
G00 X124.4235 Y-42.6086
G01 F30.00
G01 Z0.0000
G01 F100.00
G01 X124.4201 Y-42.5400
G01 X124.4235 Y-42.4714
G01 X124.4336 Y-42.4035
G01 X124.4503 Y-42.3368
G01 X124.4734 Y-42.2722
G01 X124.5028 Y-42.2101
G01 X124.5381 Y-42.1512
G01 X124.5790 Y-42.0960
G01 X124.6251 Y-42.0451
G01 X124.6760 Y-41.9990
G01 X124.7312 Y-41.9581
G01 X124.7901 Y-41.9228
G01 X124.8522 Y-41.8934
G01 X124.9168 Y-41.8703
G01 X124.9835 Y-41.8536
G01 X125.0514 Y-41.8435
G01 X125.1200 Y-41.8401
G01 X125.1886 Y-41.8435
G01 X125.2565 Y-41.8536
G01 X125.3232 Y-41.8703
G01 X125.3878 Y-41.8934
G01 X125.4499 Y-41.9228
G01 X125.5088 Y-41.9581
G01 X125.5640 Y-41.9990
G01 X125.6149 Y-42.0451
G01 X125.6610 Y-42.0960
G01 X125.7019 Y-42.1512
G01 X125.7372 Y-42.2101
G01 X125.7666 Y-42.2722
G01 X125.7897 Y-42.3368
G01 X125.8064 Y-42.4035
G01 X125.8165 Y-42.4714
G01 X125.8199 Y-42.5400
G01 X125.8165 Y-42.6086
G01 X125.8064 Y-42.6765
G01 X125.7897 Y-42.7432
G01 X125.7666 Y-42.8078
G01 X125.7372 Y-42.8699
G01 X125.7019 Y-42.9288
G01 X125.6610 Y-42.9840
G01 X125.6149 Y-43.0349
G01 X125.5640 Y-43.0810
G01 X125.5088 Y-43.1219
G01 X125.4499 Y-43.1572
G01 X125.3878 Y-43.1866
G01 X125.3232 Y-43.2097
G01 X125.2565 Y-43.2264
G01 X125.1886 Y-43.2365
G01 X125.1200 Y-43.2399
G01 X125.0514 Y-43.2365
G01 X124.9835 Y-43.2264
G01 X124.9168 Y-43.2097
G01 X124.8522 Y-43.1866
G01 X124.7901 Y-43.1572
G01 X124.7312 Y-43.1219
G01 X124.6760 Y-43.0810
G01 X124.6251 Y-43.0349
G01 X124.5790 Y-42.9840
G01 X124.5381 Y-42.9288
G01 X124.5028 Y-42.8699
G01 X124.4734 Y-42.8078
G01 X124.4503 Y-42.7432
G01 X124.4336 Y-42.6765
G01 X124.4235 Y-42.6086
G01 X124.5829 Y-42.5929
G01 X124.5803 Y-42.5400
G01 X124.5829 Y-42.4871
G01 X124.5907 Y-42.4347
G01 X124.6036 Y-42.3833
G01 X124.6214 Y-42.3335
G01 X124.6440 Y-42.2856
G01 X124.6713 Y-42.2402
G01 X124.7028 Y-42.1976
G01 X124.7384 Y-42.1584
G01 X124.7776 Y-42.1228
G01 X124.8202 Y-42.0913
G01 X124.8656 Y-42.0640
G01 X124.9135 Y-42.0414
G01 X124.9633 Y-42.0236
G01 X125.0147 Y-42.0107
G01 X125.0671 Y-42.0029
G01 X125.1200 Y-42.0003
G01 X125.1729 Y-42.0029
G01 X125.2253 Y-42.0107
G01 X125.2767 Y-42.0236
G01 X125.3265 Y-42.0414
G01 X125.3744 Y-42.0640
G01 X125.4198 Y-42.0913
G01 X125.4624 Y-42.1228
G01 X125.5016 Y-42.1584
G01 X125.5372 Y-42.1976
G01 X125.5687 Y-42.2402
G01 X125.5960 Y-42.2856
G01 X125.6186 Y-42.3335
G01 X125.6364 Y-42.3833
G01 X125.6493 Y-42.4347
G01 X125.6571 Y-42.4871
G01 X125.6597 Y-42.5400
G01 X125.6571 Y-42.5929
G01 X125.6493 Y-42.6453
G01 X125.6364 Y-42.6967
G01 X125.6186 Y-42.7465
G01 X125.5960 Y-42.7944
G01 X125.5687 Y-42.8398
G01 X125.5372 Y-42.8824
G01 X125.5016 Y-42.9216
G01 X125.4624 Y-42.9572
G01 X125.4198 Y-42.9887
G01 X125.3744 Y-43.0160
G01 X125.3265 Y-43.0386
G01 X125.2767 Y-43.0564
G01 X125.2253 Y-43.0693
G01 X125.1729 Y-43.0771
G01 X125.1200 Y-43.0797
G01 X125.0671 Y-43.0771
G01 X125.0147 Y-43.0693
G01 X124.9633 Y-43.0564
G01 X124.9135 Y-43.0386
G01 X124.8656 Y-43.0160
G01 X124.8202 Y-42.9887
G01 X124.7776 Y-42.9572
G01 X124.7384 Y-42.9216
G01 X124.7028 Y-42.8824
G01 X124.6713 Y-42.8398
G01 X124.6440 Y-42.7944
G01 X124.6214 Y-42.7465
G01 X124.6036 Y-42.6967
G01 X124.5907 Y-42.6453
G01 X124.5829 Y-42.5929
G01 X124.7423 Y-42.5772
G01 X124.7405 Y-42.5400
G01 X124.7423 Y-42.5028
G01 X124.7478 Y-42.4660
G01 X124.7568 Y-42.4298
G01 X124.7694 Y-42.3948
G01 X124.7853 Y-42.3611
G01 X124.8045 Y-42.3292
G01 X124.8266 Y-42.2993
G01 X124.8517 Y-42.2717
G01 X124.8793 Y-42.2466
G01 X124.9092 Y-42.2245
G01 X124.9411 Y-42.2053
G01 X124.9748 Y-42.1894
G01 X125.0098 Y-42.1768
G01 X125.0460 Y-42.1678
G01 X125.0828 Y-42.1623
G01 X125.1200 Y-42.1605
G01 X125.1572 Y-42.1623
G01 X125.1940 Y-42.1678
G01 X125.2302 Y-42.1768
G01 X125.2652 Y-42.1894
G01 X125.2989 Y-42.2053
G01 X125.3308 Y-42.2245
G01 X125.3607 Y-42.2466
G01 X125.3883 Y-42.2717
G01 X125.4134 Y-42.2993
G01 X125.4355 Y-42.3292
G01 X125.4547 Y-42.3611
G01 X125.4706 Y-42.3948
G01 X125.4832 Y-42.4298
G01 X125.4922 Y-42.4660
G01 X125.4977 Y-42.5028
G01 X125.4995 Y-42.5400
G01 X125.4977 Y-42.5772
G01 X125.4922 Y-42.6140
G01 X125.4832 Y-42.6502
G01 X125.4706 Y-42.6852
G01 X125.4547 Y-42.7189
G01 X125.4355 Y-42.7508
G01 X125.4134 Y-42.7807
G01 X125.3883 Y-42.8083
G01 X125.3607 Y-42.8334
G01 X125.3308 Y-42.8555
G01 X125.2989 Y-42.8747
G01 X125.2652 Y-42.8906
G01 X125.2302 Y-42.9032
G01 X125.1940 Y-42.9122
G01 X125.1572 Y-42.9177
G01 X125.1200 Y-42.9195
G01 X125.0828 Y-42.9177
G01 X125.0460 Y-42.9122
G01 X125.0098 Y-42.9032
G01 X124.9748 Y-42.8906
G01 X124.9411 Y-42.8747
G01 X124.9092 Y-42.8555
G01 X124.8793 Y-42.8334
G01 X124.8517 Y-42.8083
G01 X124.8266 Y-42.7807
G01 X124.8045 Y-42.7508
G01 X124.7853 Y-42.7189
G01 X124.7694 Y-42.6852
G01 X124.7568 Y-42.6502
G01 X124.7478 Y-42.6140
G01 X124.7423 Y-42.5772
G01 X124.9018 Y-42.5615
G01 X124.9007 Y-42.5400
G01 X124.9018 Y-42.5185
G01 X124.9049 Y-42.4972
G01 X124.9101 Y-42.4763
G01 X124.9174 Y-42.4561
G01 X124.9266 Y-42.4366
G01 X124.9377 Y-42.4182
G01 X124.9505 Y-42.4009
G01 X124.9649 Y-42.3849
G01 X124.9809 Y-42.3705
G01 X124.9982 Y-42.3577
G01 X125.0166 Y-42.3466
G01 X125.0361 Y-42.3374
G01 X125.0563 Y-42.3301
G01 X125.0772 Y-42.3249
G01 X125.0985 Y-42.3218
G01 X125.1200 Y-42.3207
G01 X125.1415 Y-42.3218
G01 X125.1628 Y-42.3249
G01 X125.1837 Y-42.3301
G01 X125.2039 Y-42.3374
G01 X125.2234 Y-42.3466
G01 X125.2418 Y-42.3577
G01 X125.2591 Y-42.3705
G01 X125.2751 Y-42.3849
G01 X125.2895 Y-42.4009
G01 X125.3023 Y-42.4182
G01 X125.3134 Y-42.4366
G01 X125.3226 Y-42.4561
G01 X125.3299 Y-42.4763
G01 X125.3351 Y-42.4972
G01 X125.3382 Y-42.5185
G01 X125.3393 Y-42.5400
G01 X125.3382 Y-42.5615
G01 X125.3351 Y-42.5828
G01 X125.3299 Y-42.6037
G01 X125.3226 Y-42.6239
G01 X125.3134 Y-42.6434
G01 X125.3023 Y-42.6618
G01 X125.2895 Y-42.6791
G01 X125.2751 Y-42.6951
G01 X125.2591 Y-42.7095
G01 X125.2418 Y-42.7223
G01 X125.2234 Y-42.7334
G01 X125.2039 Y-42.7426
G01 X125.1837 Y-42.7499
G01 X125.1628 Y-42.7551
G01 X125.1415 Y-42.7582
G01 X125.1200 Y-42.7593
G01 X125.0985 Y-42.7582
G01 X125.0772 Y-42.7551
G01 X125.0563 Y-42.7499
G01 X125.0361 Y-42.7426
G01 X125.0166 Y-42.7334
G01 X124.9982 Y-42.7223
G01 X124.9809 Y-42.7095
G01 X124.9649 Y-42.6951
G01 X124.9505 Y-42.6791
G01 X124.9377 Y-42.6618
G01 X124.9266 Y-42.6434
G01 X124.9174 Y-42.6239
G01 X124.9101 Y-42.6037
G01 X124.9049 Y-42.5828
G01 X124.9018 Y-42.5615
G01 X125.0612 Y-42.5458
G01 X125.0609 Y-42.5400
G01 X125.0612 Y-42.5342
G01 X125.0620 Y-42.5285
G01 X125.0634 Y-42.5228
G01 X125.0654 Y-42.5174
G01 X125.0679 Y-42.5121
G01 X125.0709 Y-42.5072
G01 X125.0743 Y-42.5025
G01 X125.0782 Y-42.4982
G01 X125.0825 Y-42.4943
G01 X125.0872 Y-42.4909
G01 X125.0921 Y-42.4879
G01 X125.0974 Y-42.4854
G01 X125.1028 Y-42.4834
G01 X125.1085 Y-42.4820
G01 X125.1142 Y-42.4812
G01 X125.1200 Y-42.4809
G01 X125.1258 Y-42.4812
G01 X125.1315 Y-42.4820
G01 X125.1372 Y-42.4834
G01 X125.1426 Y-42.4854
G01 X125.1479 Y-42.4879
G01 X125.1528 Y-42.4909
G01 X125.1575 Y-42.4943
G01 X125.1618 Y-42.4982
G01 X125.1657 Y-42.5025
G01 X125.1691 Y-42.5072
G01 X125.1721 Y-42.5121
G01 X125.1746 Y-42.5174
G01 X125.1766 Y-42.5228
G01 X125.1780 Y-42.5285
G01 X125.1788 Y-42.5342
G01 X125.1791 Y-42.5400
G01 X125.1788 Y-42.5458
G01 X125.1780 Y-42.5515
G01 X125.1766 Y-42.5572
G01 X125.1746 Y-42.5626
G01 X125.1721 Y-42.5679
G01 X125.1691 Y-42.5728
G01 X125.1657 Y-42.5775
G01 X125.1618 Y-42.5818
G01 X125.1575 Y-42.5857
G01 X125.1528 Y-42.5891
G01 X125.1479 Y-42.5921
G01 X125.1426 Y-42.5946
G01 X125.1372 Y-42.5966
G01 X125.1315 Y-42.5980
G01 X125.1258 Y-42.5988
G01 X125.1200 Y-42.5991
G01 X125.1142 Y-42.5988
G01 X125.1085 Y-42.5980
G01 X125.1028 Y-42.5966
G01 X125.0974 Y-42.5946
G01 X125.0921 Y-42.5921
G01 X125.0872 Y-42.5891
G01 X125.0825 Y-42.5857
G01 X125.0782 Y-42.5818
G01 X125.0743 Y-42.5775
G01 X125.0709 Y-42.5728
G01 X125.0679 Y-42.5679
G01 X125.0654 Y-42.5626
G01 X125.0634 Y-42.5572
G01 X125.0620 Y-42.5515
G01 X125.0612 Y-42.5458
G00 Z1.0000
G00 X125.0612 Y-40.0058
G01 F30.00
G01 Z0.0000
G01 F100.00
G01 X125.0620 Y-40.0115
G01 X125.0634 Y-40.0172
